MODULE MainModule
!! ************************************************************
!! Toolpath ID: 1710333830_MX3D0cuhq | MX3D
!! Chunk ID: 0 [1/1] 
!! Robot: Robot 9
!! Filename: MX3D_20240313_144407.mod
!! Project name: MX3D
!! Created on 2024-03-13 14:44:07.207078
!! Position: x: 0.00 y: 0.00 z: 0.00 | Rotation: 0.00
!! ************************************************************

!! Variables for Speed Zig-Zag (CMT) between Surfaces strategy (Solid Zig-Zag Between Two Surfaces):
VAR num delayClosedStart_0  := 0.05;
VAR num delayClosedStop_0   := 0.05;
VAR num delayOpenStart_0    := 0.15;
VAR num delayOpenStop_0     := 0.15;
VAR num preGas_0            := 0.2;
VAR num postGas_0           := 0.2;
VAR zonedata zIns_0         := fine;
VAR zonedata zDef_0         := z0;

VAR num delayOverhang       := 0;

!! Print and approach speeds
VAR speeddata printSpeed_0 := [100.0, 1000.0, 10.0, 10.0];
VAR speeddata moveSpeed_0 := [1000.0, 800.0, 300.0, 60.0];

!! Welding and process parameters
VAR bool useTempSensor0    := TRUE;


VAR num wTime_5 := 5;


PROC main()
interpassTemp := 200.0;
emissivity := 0.992;

initialize "1710333830_MX3D0cuhq", "00", \projectName:="MX3D", \askLogWeld:=False, \askMonitoring:=False, \tcpLog:=True; ! toolpathID and (zero based) chunkIndex 
ActUnit STN1;
MoveL [[83.317,61.292,75.010],[0.000000,0.000998,1.000000,0.000009],[0,0,0,1],[9E9,0.0,0.0,9E9,9E9,9E9]],moveSpeed_0,zDef_0,bendedTool,\WObj:=ext_axis;
MoveL [[83.317,61.292,25.010],[0.000000,0.000998,1.000000,0.000009],[0,0,0,1],[9E9,0.0,0.0,9E9,9E9,9E9]],moveSpeed_0,zIns_0,bendedTool,\WObj:=ext_axis;
waitInterpass useTempSensor0, wTime_5;
TPWrite "[0.0%] PRT0 LYR0 TRK0 (25.0mm)";
startContinuousWeld \preGasTime:=preGas_0 \postStartWeldDelay:=delayClosedStart_0 \weldingProgram:=27 \weldId:="0000-0000-0000-0002";
MoveL [[29.758,20.020,25.010],[0.000000,0.000998,1.000000,0.000009],[0,0,0,1],[9E9,0.0,0.0,9E9,9E9,9E9]],printSpeed_0,zDef_0,bendedTool,\WObj:=ext_axis;
MoveL [[30.786,18.250,25.010],[0.000000,0.000998,1.000000,0.000009],[0,0,0,1],[9E9,0.0,0.0,9E9,9E9,9E9]],printSpeed_0,zDef_0,bendedTool,\WObj:=ext_axis;
MoveL [[86.757,56.491,25.010],[0.000000,0.000998,1.000000,0.000009],[0,0,0,1],[9E9,0.0,0.0,9E9,9E9,9E9]],printSpeed_0,zDef_0,bendedTool,\WObj:=ext_axis;
MoveL [[89.752,51.389,25.010],[0.000000,0.000998,1.000000,0.000009],[0,0,0,1],[9E9,0.0,0.0,9E9,9E9,9E9]],printSpeed_0,zDef_0,bendedTool,\WObj:=ext_axis;
MoveL [[31.814,16.480,25.010],[0.000000,0.000998,1.000000,0.000009],[0,0,0,1],[9E9,0.0,0.0,9E9,9E9,9E9]],printSpeed_0,zDef_0,bendedTool,\WObj:=ext_axis;
MoveL [[32.670,14.625,25.010],[0.000000,0.000998,1.000000,0.000009],[0,0,0,1],[9E9,0.0,0.0,9E9,9E9,9E9]],printSpeed_0,zDef_0,bendedTool,\WObj:=ext_axis;
MoveL [[92.747,46.288,25.010],[0.000000,0.000998,1.000000,0.000009],[0,0,0,1],[9E9,0.0,0.0,9E9,9E9,9E9]],printSpeed_0,zDef_0,bendedTool,\WObj:=ext_axis;
MoveL [[95.035,40.834,25.010],[0.000000,0.000998,1.000000,0.000009],[0,0,0,1],[9E9,0.0,0.0,9E9,9E9,9E9]],printSpeed_0,zDef_0,bendedTool,\WObj:=ext_axis;
MoveL [[33.459,12.736,25.010],[0.000000,0.000998,1.000000,0.000009],[0,0,0,1],[9E9,0.0,0.0,9E9,9E9,9E9]],printSpeed_0,zDef_0,bendedTool,\WObj:=ext_axis;
MoveL [[34.141,10.811,25.010],[0.000000,0.000998,1.000000,0.000009],[0,0,0,1],[9E9,0.0,0.0,9E9,9E9,9E9]],printSpeed_0,zDef_0,bendedTool,\WObj:=ext_axis;
MoveL [[97.312,35.373,25.010],[0.000000,0.000998,1.000000,0.000009],[0,0,0,1],[9E9,0.0,0.0,9E9,9E9,9E9]],printSpeed_0,zDef_0,bendedTool,\WObj:=ext_axis;
MoveL [[99.080,29.740,25.010],[0.000000,0.000998,1.000000,0.000009],[0,0,0,1],[9E9,0.0,0.0,9E9,9E9,9E9]],printSpeed_0,zDef_0,bendedTool,\WObj:=ext_axis;
MoveL [[34.676,8.835,25.010],[0.000000,0.000998,1.000000,0.000009],[0,0,0,1],[9E9,0.0,0.0,9E9,9E9,9E9]],printSpeed_0,zDef_0,bendedTool,\WObj:=ext_axis;
MoveL [[35.179,6.853,25.010],[0.000000,0.000998,1.000000,0.000009],[0,0,0,1],[9E9,0.0,0.0,9E9,9E9,9E9]],printSpeed_0,zDef_0,bendedTool,\WObj:=ext_axis;
MoveL [[100.622,24.029,25.010],[0.000000,0.000998,1.000000,0.000009],[0,0,0,1],[9E9,0.0,0.0,9E9,9E9,9E9]],printSpeed_0,zDef_0,bendedTool,\WObj:=ext_axis;
MoveL [[101.874,18.258,25.010],[0.000000,0.000998,1.000000,0.000009],[0,0,0,1],[9E9,0.0,0.0,9E9,9E9,9E9]],printSpeed_0,zDef_0,bendedTool,\WObj:=ext_axis;
MoveL [[35.450,4.824,25.010],[0.000000,0.000998,1.000000,0.000009],[0,0,0,1],[9E9,0.0,0.0,9E9,9E9,9E9]],printSpeed_0,zDef_0,bendedTool,\WObj:=ext_axis;
MoveL [[35.722,2.795,25.010],[0.000000,0.000998,1.000000,0.000009],[0,0,0,1],[9E9,0.0,0.0,9E9,9E9,9E9]],printSpeed_0,zDef_0,bendedTool,\WObj:=ext_axis;
MoveL [[102.688,12.399,25.010],[0.000000,0.000998,1.000000,0.000009],[0,0,0,1],[9E9,0.0,0.0,9E9,9E9,9E9]],printSpeed_0,zDef_0,bendedTool,\WObj:=ext_axis;
MoveL [[103.416,6.534,25.010],[0.000000,0.000998,1.000000,0.000009],[0,0,0,1],[9E9,0.0,0.0,9E9,9E9,9E9]],printSpeed_0,zDef_0,bendedTool,\WObj:=ext_axis;
MoveL [[35.773,0.751,25.010],[0.000000,0.000998,1.000000,0.000009],[0,-1,0,1],[9E9,0.0,0.0,9E9,9E9,9E9]],printSpeed_0,zDef_0,bendedTool,\WObj:=ext_axis;
MoveL [[35.777,-1.295,25.010],[0.000000,0.000998,1.000000,0.000009],[0,-1,0,1],[9E9,0.0,0.0,9E9,9E9,9E9]],printSpeed_0,zDef_0,bendedTool,\WObj:=ext_axis;
MoveL [[103.430,0.618,25.010],[0.000000,0.000998,1.000000,0.000009],[0,-1,0,1],[9E9,0.0,0.0,9E9,9E9,9E9]],printSpeed_0,zDef_0,bendedTool,\WObj:=ext_axis;
MoveL [[103.443,-5.298,25.010],[0.000000,0.000998,1.000000,0.000009],[-1,-1,0,1],[9E9,0.0,0.0,9E9,9E9,9E9]],printSpeed_0,zDef_0,bendedTool,\WObj:=ext_axis;
MoveL [[35.638,-3.333,25.010],[0.000000,0.000998,1.000000,0.000009],[-1,-1,0,1],[9E9,0.0,0.0,9E9,9E9,9E9]],printSpeed_0,zDef_0,bendedTool,\WObj:=ext_axis;
MoveL [[35.376,-5.363,25.010],[0.000000,0.000998,1.000000,0.000009],[-1,-1,0,1],[9E9,0.0,0.0,9E9,9E9,9E9]],printSpeed_0,zDef_0,bendedTool,\WObj:=ext_axis;
MoveL [[102.825,-11.173,25.010],[0.000000,0.000998,1.000000,0.000009],[-1,-1,0,1],[9E9,0.0,0.0,9E9,9E9,9E9]],printSpeed_0,zDef_0,bendedTool,\WObj:=ext_axis;
MoveL [[102.064,-17.040,25.010],[0.000000,0.000998,1.000000,0.000009],[-1,-1,0,1],[9E9,0.0,0.0,9E9,9E9,9E9]],printSpeed_0,zDef_0,bendedTool,\WObj:=ext_axis;
MoveL [[35.047,-7.380,25.010],[0.000000,0.000998,1.000000,0.000009],[-1,-1,0,1],[9E9,0.0,0.0,9E9,9E9,9E9]],printSpeed_0,zDef_0,bendedTool,\WObj:=ext_axis;
MoveL [[34.523,-9.359,25.010],[0.000000,0.000998,1.000000,0.000009],[-1,-1,0,1],[9E9,0.0,0.0,9E9,9E9,9E9]],printSpeed_0,zDef_0,bendedTool,\WObj:=ext_axis;
MoveL [[100.921,-22.832,25.010],[0.000000,0.000998,1.000000,0.000009],[-1,-1,0,1],[9E9,0.0,0.0,9E9,9E9,9E9]],printSpeed_0,zDef_0,bendedTool,\WObj:=ext_axis;
MoveL [[99.431,-28.557,25.010],[0.000000,0.000998,1.000000,0.000009],[-1,-1,0,1],[9E9,0.0,0.0,9E9,9E9,9E9]],printSpeed_0,zDef_0,bendedTool,\WObj:=ext_axis;
MoveL [[33.999,-11.337,25.010],[0.000000,0.000998,1.000000,0.000009],[-1,-1,0,1],[9E9,0.0,0.0,9E9,9E9,9E9]],printSpeed_0,zDef_0,bendedTool,\WObj:=ext_axis;
MoveL [[33.230,-13.234,25.010],[0.000000,0.000998,1.000000,0.000009],[-1,-1,0,1],[9E9,0.0,0.0,9E9,9E9,9E9]],printSpeed_0,zDef_0,bendedTool,\WObj:=ext_axis;
MoveL [[97.763,-34.223,25.010],[0.000000,0.000998,1.000000,0.000009],[-1,-1,0,1],[9E9,0.0,0.0,9E9,9E9,9E9]],printSpeed_0,zDef_0,bendedTool,\WObj:=ext_axis;
MoveL [[95.512,-39.694,25.010],[0.000000,0.000998,1.000000,0.000009],[-1,-1,0,1],[9E9,0.0,0.0,9E9,9E9,9E9]],printSpeed_0,zDef_0,bendedTool,\WObj:=ext_axis;
MoveL [[32.453,-15.127,25.010],[0.000000,0.000998,1.000000,0.000009],[-1,-1,0,1],[9E9,0.0,0.0,9E9,9E9,9E9]],printSpeed_0,zDef_0,bendedTool,\WObj:=ext_axis;
MoveL [[31.512,-16.941,25.010],[0.000000,0.000998,1.000000,0.000009],[-1,-1,0,1],[9E9,0.0,0.0,9E9,9E9,9E9]],printSpeed_0,zDef_0,bendedTool,\WObj:=ext_axis;
MoveL [[93.260,-45.164,25.010],[0.000000,0.000998,1.000000,0.000009],[-1,-1,0,1],[9E9,0.0,0.0,9E9,9E9,9E9]],printSpeed_0,zDef_0,bendedTool,\WObj:=ext_axis;
MoveL [[90.354,-50.313,25.010],[0.000000,0.000998,1.000000,0.000009],[-1,-1,0,1],[9E9,0.0,0.0,9E9,9E9,9E9]],printSpeed_0,zDef_0,bendedTool,\WObj:=ext_axis;
MoveL [[30.495,-18.717,25.010],[0.000000,0.000998,1.000000,0.000009],[-1,-1,0,1],[9E9,0.0,0.0,9E9,9E9,9E9]],printSpeed_0,zDef_0,bendedTool,\WObj:=ext_axis;
MoveL [[29.389,-20.434,25.010],[0.000000,0.000998,1.000000,0.000009],[-1,-1,0,1],[9E9,0.0,0.0,9E9,9E9,9E9]],printSpeed_0,zDef_0,bendedTool,\WObj:=ext_axis;
MoveL [[87.406,-55.442,25.010],[0.000000,0.000998,1.000000,0.000009],[-1,-1,0,1],[9E9,0.0,0.0,9E9,9E9,9E9]],printSpeed_0,zDef_0,bendedTool,\WObj:=ext_axis;
MoveL [[84.055,-60.304,25.010],[0.000000,0.000998,1.000000,0.000009],[-1,-1,0,1],[9E9,0.0,0.0,9E9,9E9,9E9]],printSpeed_0,zDef_0,bendedTool,\WObj:=ext_axis;
MoveL [[28.149,-22.063,25.010],[0.000000,0.000998,1.000000,0.000009],[-1,-1,0,1],[9E9,0.0,0.0,9E9,9E9,9E9]],printSpeed_0,zDef_0,bendedTool,\WObj:=ext_axis;
MoveL [[26.887,-23.672,25.010],[0.000000,0.000998,1.000000,0.000009],[-1,-1,0,1],[9E9,0.0,0.0,9E9,9E9,9E9]],printSpeed_0,zDef_0,bendedTool,\WObj:=ext_axis;
MoveL [[80.487,-65.023,25.010],[0.000000,0.000998,1.000000,0.000009],[-1,-1,0,1],[9E9,0.0,0.0,9E9,9E9,9E9]],printSpeed_0,zDef_0,bendedTool,\WObj:=ext_axis;
MoveL [[76.704,-69.554,25.010],[0.000000,0.000998,1.000000,0.000009],[-1,-1,0,1],[9E9,0.0,0.0,9E9,9E9,9E9]],printSpeed_0,zDef_0,bendedTool,\WObj:=ext_axis;
MoveL [[25.446,-25.126,25.010],[0.000000,0.000998,1.000000,0.000009],[-1,-1,0,1],[9E9,0.0,0.0,9E9,9E9,9E9]],printSpeed_0,zDef_0,bendedTool,\WObj:=ext_axis;
MoveL [[24.005,-26.579,25.010],[0.000000,0.000998,1.000000,0.000009],[-1,-1,0,1],[9E9,0.0,0.0,9E9,9E9,9E9]],printSpeed_0,zDef_0,bendedTool,\WObj:=ext_axis;
MoveL [[72.530,-73.746,25.010],[0.000000,0.000998,1.000000,0.000009],[-1,-1,0,1],[9E9,0.0,0.0,9E9,9E9,9E9]],printSpeed_0,zDef_0,bendedTool,\WObj:=ext_axis;
MoveL [[68.324,-77.902,25.010],[0.000000,0.000998,1.000000,0.000009],[-1,-1,0,1],[9E9,0.0,0.0,9E9,9E9,9E9]],printSpeed_0,zDef_0,bendedTool,\WObj:=ext_axis;
MoveL [[22.418,-27.868,25.010],[0.000000,0.000998,1.000000,0.000009],[-1,-1,0,1],[9E9,0.0,0.0,9E9,9E9,9E9]],printSpeed_0,zDef_0,bendedTool,\WObj:=ext_axis;
MoveL [[20.799,-29.121,25.010],[0.000000,0.000998,1.000000,0.000009],[-1,-1,0,1],[9E9,0.0,0.0,9E9,9E9,9E9]],printSpeed_0,zDef_0,bendedTool,\WObj:=ext_axis;
MoveL [[63.637,-81.511,25.010],[0.000000,0.000998,1.000000,0.000009],[-1,-1,0,1],[9E9,0.0,0.0,9E9,9E9,9E9]],printSpeed_0,zDef_0,bendedTool,\WObj:=ext_axis;
MoveL [[58.950,-85.120,25.010],[0.000000,0.000998,1.000000,0.000009],[-1,-1,0,1],[9E9,0.0,0.0,9E9,9E9,9E9]],printSpeed_0,zDef_0,bendedTool,\WObj:=ext_axis;
MoveL [[19.101,-30.255,25.010],[0.000000,0.000998,1.000000,0.000009],[-1,-1,0,1],[9E9,0.0,0.0,9E9,9E9,9E9]],printSpeed_0,zDef_0,bendedTool,\WObj:=ext_axis;
MoveL [[17.333,-31.286,25.010],[0.000000,0.000998,1.000000,0.000009],[-1,-1,0,1],[9E9,0.0,0.0,9E9,9E9,9E9]],printSpeed_0,zDef_0,bendedTool,\WObj:=ext_axis;
MoveL [[53.942,-88.255,25.010],[0.000000,0.000998,1.000000,0.000009],[-1,-1,0,1],[9E9,0.0,0.0,9E9,9E9,9E9]],printSpeed_0,zDef_0,bendedTool,\WObj:=ext_axis;
MoveL [[48.839,-91.247,25.010],[0.000000,0.000998,1.000000,0.000009],[-1,-1,0,1],[9E9,0.0,0.0,9E9,9E9,9E9]],printSpeed_0,zDef_0,bendedTool,\WObj:=ext_axis;
MoveL [[15.536,-32.260,25.010],[0.000000,0.000998,1.000000,0.000009],[-1,-1,0,1],[9E9,0.0,0.0,9E9,9E9,9E9]],printSpeed_0,zDef_0,bendedTool,\WObj:=ext_axis;
MoveL [[13.648,-33.051,25.010],[0.000000,0.000998,1.000000,0.000009],[-1,-1,0,1],[9E9,0.0,0.0,9E9,9E9,9E9]],printSpeed_0,zDef_0,bendedTool,\WObj:=ext_axis;
MoveL [[43.566,-93.898,25.010],[0.000000,0.000998,1.000000,0.000009],[-1,-1,0,1],[9E9,0.0,0.0,9E9,9E9,9E9]],printSpeed_0,zDef_0,bendedTool,\WObj:=ext_axis;
MoveL [[38.105,-96.173,25.010],[0.000000,0.000998,1.000000,0.000009],[-1,-1,0,1],[9E9,0.0,0.0,9E9,9E9,9E9]],printSpeed_0,zDef_0,bendedTool,\WObj:=ext_axis;
MoveL [[11.760,-33.842,25.010],[0.000000,0.000998,1.000000,0.000009],[-1,-1,0,1],[9E9,0.0,0.0,9E9,9E9,9E9]],printSpeed_0,zDef_0,bendedTool,\WObj:=ext_axis;
MoveL [[9.790,-34.394,25.010],[0.000000,0.000998,1.000000,0.000009],[-1,-1,0,1],[9E9,0.0,0.0,9E9,9E9,9E9]],printSpeed_0,zDef_0,bendedTool,\WObj:=ext_axis;
MoveL [[32.598,-98.312,25.010],[0.000000,0.000998,1.000000,0.000009],[-1,-1,0,1],[9E9,0.0,0.0,9E9,9E9,9E9]],printSpeed_0,zDef_0,bendedTool,\WObj:=ext_axis;
MoveL [[26.887,-99.852,25.010],[0.000000,0.000998,1.000000,0.000009],[-1,-1,0,1],[9E9,0.0,0.0,9E9,9E9,9E9]],printSpeed_0,zDef_0,bendedTool,\WObj:=ext_axis;
MoveL [[7.815,-34.931,25.010],[0.000000,0.000998,1.000000,0.000009],[-1,-1,0,1],[9E9,0.0,0.0,9E9,9E9,9E9]],printSpeed_0,zDef_0,bendedTool,\WObj:=ext_axis;
MoveL [[5.805,-35.297,25.010],[0.000000,0.000998,1.000000,0.000009],[-1,-1,0,1],[9E9,0.0,0.0,9E9,9E9,9E9]],printSpeed_0,zDef_0,bendedTool,\WObj:=ext_axis;
MoveL [[21.175,-101.392,25.010],[0.000000,0.000998,1.000000,0.000009],[-1,-1,0,1],[9E9,0.0,0.0,9E9,9E9,9E9]],printSpeed_0,zDef_0,bendedTool,\WObj:=ext_axis;
MoveL [[15.331,-102.281,25.010],[0.000000,0.000998,1.000000,0.000009],[-1,-1,0,1],[9E9,0.0,0.0,9E9,9E9,9E9]],printSpeed_0,zDef_0,bendedTool,\WObj:=ext_axis;
MoveL [[3.777,-35.573,25.010],[0.000000,0.000998,1.000000,0.000009],[-1,-1,0,1],[9E9,0.0,0.0,9E9,9E9,9E9]],printSpeed_0,zDef_0,bendedTool,\WObj:=ext_axis;
MoveL [[1.742,-35.751,25.010],[0.000000,0.000998,1.000000,0.000009],[-1,-1,0,1],[9E9,0.0,0.0,9E9,9E9,9E9]],printSpeed_0,zDef_0,bendedTool,\WObj:=ext_axis;
MoveL [[9.471,-103.094,25.010],[0.000000,0.000998,1.000000,0.000009],[-1,-1,0,1],[9E9,0.0,0.0,9E9,9E9,9E9]],printSpeed_0,zDef_0,bendedTool,\WObj:=ext_axis;
MoveL [[3.578,-103.423,25.010],[0.000000,0.000998,1.000000,0.000009],[-1,-1,0,1],[9E9,0.0,0.0,9E9,9E9,9E9]],printSpeed_0,zDef_0,bendedTool,\WObj:=ext_axis;
MoveL [[-0.305,-35.759,25.010],[0.000000,0.000998,1.000000,0.000009],[-1,-1,0,1],[9E9,0.0,0.0,9E9,9E9,9E9]],printSpeed_0,zDef_0,bendedTool,\WObj:=ext_axis;
MoveL [[-2.350,-35.748,25.010],[0.000000,0.000998,1.000000,0.000009],[-1,-1,0,1],[9E9,0.0,0.0,9E9,9E9,9E9]],printSpeed_0,zDef_0,bendedTool,\WObj:=ext_axis;
MoveL [[-2.338,-103.435,25.010],[0.000000,0.000998,1.000000,0.000009],[-1,-1,0,1],[9E9,0.0,0.0,9E9,9E9,9E9]],printSpeed_0,zDef_0,bendedTool,\WObj:=ext_axis;
MoveL [[-8.239,-103.209,25.010],[0.000000,0.000998,1.000000,0.000009],[-1,-1,0,1],[9E9,0.0,0.0,9E9,9E9,9E9]],printSpeed_0,zDef_0,bendedTool,\WObj:=ext_axis;
MoveL [[-4.381,-35.489,25.010],[0.000000,0.000998,1.000000,0.000009],[-1,-1,0,1],[9E9,0.0,0.0,9E9,9E9,9E9]],printSpeed_0,zDef_0,bendedTool,\WObj:=ext_axis;
MoveL [[-6.411,-35.230,25.010],[0.000000,0.000998,1.000000,0.000009],[-1,-1,0,1],[9E9,0.0,0.0,9E9,9E9,9E9]],printSpeed_0,zDef_0,bendedTool,\WObj:=ext_axis;
MoveL [[-14.105,-102.445,25.010],[0.000000,0.000998,1.000000,0.000009],[-1,-1,0,1],[9E9,0.0,0.0,9E9,9E9,9E9]],printSpeed_0,zDef_0,bendedTool,\WObj:=ext_axis;
MoveL [[-19.969,-101.669,25.010],[0.000000,0.000998,1.000000,0.000009],[-1,-1,0,1],[9E9,0.0,0.0,9E9,9E9,9E9]],printSpeed_0,zDef_0,bendedTool,\WObj:=ext_axis;
MoveL [[-8.402,-34.765,25.010],[0.000000,0.000998,1.000000,0.000009],[-1,-1,0,1],[9E9,0.0,0.0,9E9,9E9,9E9]],printSpeed_0,zDef_0,bendedTool,\WObj:=ext_axis;
MoveL [[-10.381,-34.245,25.010],[0.000000,0.000998,1.000000,0.000009],[-1,-1,0,1],[9E9,0.0,0.0,9E9,9E9,9E9]],printSpeed_0,zDef_0,bendedTool,\WObj:=ext_axis;
MoveL [[-25.693,-100.175,25.010],[0.000000,0.000998,1.000000,0.000009],[-1,-1,0,1],[9E9,0.0,0.0,9E9,9E9,9E9]],printSpeed_0,zDef_0,bendedTool,\WObj:=ext_axis;
MoveL [[-31.416,-98.681,25.010],[0.000000,0.000998,1.000000,0.000009],[-1,-1,0,1],[9E9,0.0,0.0,9E9,9E9,9E9]],printSpeed_0,zDef_0,bendedTool,\WObj:=ext_axis;
MoveL [[-12.318,-33.596,25.010],[0.000000,0.000998,1.000000,0.000009],[-1,-1,0,1],[9E9,0.0,0.0,9E9,9E9,9E9]],printSpeed_0,zDef_0,bendedTool,\WObj:=ext_axis;
MoveL [[-14.213,-32.822,25.010],[0.000000,0.000998,1.000000,0.000009],[-1,-1,0,1],[9E9,0.0,0.0,9E9,9E9,9E9]],printSpeed_0,zDef_0,bendedTool,\WObj:=ext_axis;
MoveL [[-36.957,-96.638,25.010],[0.000000,0.000998,1.000000,0.000009],[-1,-1,0,1],[9E9,0.0,0.0,9E9,9E9,9E9]],printSpeed_0,zDef_0,bendedTool,\WObj:=ext_axis;
MoveL [[-42.426,-94.385,25.010],[0.000000,0.000998,1.000000,0.000009],[-1,-1,0,1],[9E9,0.0,0.0,9E9,9E9,9E9]],printSpeed_0,zDef_0,bendedTool,\WObj:=ext_axis;
MoveL [[-16.083,-31.997,25.010],[0.000000,0.000998,1.000000,0.000009],[-1,-1,0,1],[9E9,0.0,0.0,9E9,9E9,9E9]],printSpeed_0,zDef_0,bendedTool,\WObj:=ext_axis;
MoveL [[-17.860,-30.982,25.010],[0.000000,0.000998,1.000000,0.000009],[-1,-1,0,1],[9E9,0.0,0.0,9E9,9E9,9E9]],printSpeed_0,zDef_0,bendedTool,\WObj:=ext_axis;
MoveL [[-47.748,-91.830,25.010],[0.000000,0.000998,1.000000,0.000009],[-1,-1,0,1],[9E9,0.0,0.0,9E9,9E9,9E9]],printSpeed_0,zDef_0,bendedTool,\WObj:=ext_axis;
MoveL [[-52.875,-88.879,25.010],[0.000000,0.000998,1.000000,0.000009],[-1,-1,0,1],[9E9,0.0,0.0,9E9,9E9,9E9]],printSpeed_0,zDef_0,bendedTool,\WObj:=ext_axis;
MoveL [[-19.637,-29.966,25.010],[0.000000,0.000998,1.000000,0.000009],[-1,-1,0,1],[9E9,0.0,0.0,9E9,9E9,9E9]],printSpeed_0,zDef_0,bendedTool,\WObj:=ext_axis;
MoveL [[-21.279,-28.746,25.010],[0.000000,0.000998,1.000000,0.000009],[-1,-1,0,1],[9E9,0.0,0.0,9E9,9E9,9E9]],printSpeed_0,zDef_0,bendedTool,\WObj:=ext_axis;
MoveL [[-57.945,-85.841,25.010],[0.000000,0.000998,1.000000,0.000009],[-1,-1,0,1],[9E9,0.0,0.0,9E9,9E9,9E9]],printSpeed_0,zDef_0,bendedTool,\WObj:=ext_axis;
MoveL [[-62.661,-82.271,25.010],[0.000000,0.000998,1.000000,0.000009],[-1,-1,0,1],[9E9,0.0,0.0,9E9,9E9,9E9]],printSpeed_0,zDef_0,bendedTool,\WObj:=ext_axis;
MoveL [[-22.908,-27.507,25.010],[0.000000,0.000998,1.000000,0.000009],[-1,-1,0,1],[9E9,0.0,0.0,9E9,9E9,9E9]],printSpeed_0,zDef_0,bendedTool,\WObj:=ext_axis;
MoveL [[-24.428,-26.142,25.010],[0.000000,0.000998,1.000000,0.000009],[-1,-1,0,1],[9E9,0.0,0.0,9E9,9E9,9E9]],printSpeed_0,zDef_0,bendedTool,\WObj:=ext_axis;
MoveL [[-67.378,-78.701,25.010],[0.000000,0.000998,1.000000,0.000009],[-1,-1,0,1],[9E9,0.0,0.0,9E9,9E9,9E9]],printSpeed_0,zDef_0,bendedTool,\WObj:=ext_axis;
MoveL [[-71.649,-74.617,25.010],[0.000000,0.000998,1.000000,0.000009],[-1,-1,0,1],[9E9,0.0,0.0,9E9,9E9,9E9]],printSpeed_0,zDef_0,bendedTool,\WObj:=ext_axis;
MoveL [[-25.882,-24.701,25.010],[0.000000,0.000998,1.000000,0.000009],[-1,-1,0,1],[9E9,0.0,0.0,9E9,9E9,9E9]],printSpeed_0,zDef_0,bendedTool,\WObj:=ext_axis;
MoveL [[-27.269,-23.202,25.010],[0.000000,0.000998,1.000000,0.000009],[-1,-1,0,1],[9E9,0.0,0.0,9E9,9E9,9E9]],printSpeed_0,zDef_0,bendedTool,\WObj:=ext_axis;
MoveL [[-75.840,-70.442,25.010],[0.000000,0.000998,1.000000,0.000009],[-1,-1,0,1],[9E9,0.0,0.0,9E9,9E9,9E9]],printSpeed_0,zDef_0,bendedTool,\WObj:=ext_axis;
MoveL [[-79.706,-65.981,25.010],[0.000000,0.000998,1.000000,0.000009],[-1,-1,0,1],[9E9,0.0,0.0,9E9,9E9,9E9]],printSpeed_0,zDef_0,bendedTool,\WObj:=ext_axis;
MoveL [[-28.522,-21.583,25.010],[0.000000,0.000998,1.000000,0.000009],[-1,-1,0,1],[9E9,0.0,0.0,9E9,9E9,9E9]],printSpeed_0,zDef_0,bendedTool,\WObj:=ext_axis;
MoveL [[-29.767,-19.959,25.010],[0.000000,0.000998,1.000000,0.000009],[-1,-1,0,1],[9E9,0.0,0.0,9E9,9E9,9E9]],printSpeed_0,zDef_0,bendedTool,\WObj:=ext_axis;
MoveL [[-83.314,-61.293,25.010],[0.000000,0.000998,1.000000,0.000009],[-1,-1,0,1],[9E9,0.0,0.0,9E9,9E9,9E9]],printSpeed_0,zDef_0,bendedTool,\WObj:=ext_axis;
MoveL [[-86.757,-56.494,25.010],[0.000000,0.000998,1.000000,0.000009],[-1,-1,0,1],[9E9,0.0,0.0,9E9,9E9,9E9]],printSpeed_0,zDef_0,bendedTool,\WObj:=ext_axis;
MoveL [[-30.798,-18.191,25.010],[0.000000,0.000998,1.000000,0.000009],[-1,-1,0,1],[9E9,0.0,0.0,9E9,9E9,9E9]],printSpeed_0,zDef_0,bendedTool,\WObj:=ext_axis;
MoveL [[-31.829,-16.423,25.010],[0.000000,0.000998,1.000000,0.000009],[-1,-1,0,1],[9E9,0.0,0.0,9E9,9E9,9E9]],printSpeed_0,zDef_0,bendedTool,\WObj:=ext_axis;
MoveL [[-89.749,-51.391,25.010],[0.000000,0.000998,1.000000,0.000009],[-1,-1,0,1],[9E9,0.0,0.0,9E9,9E9,9E9]],printSpeed_0,zDef_0,bendedTool,\WObj:=ext_axis;
MoveL [[-92.741,-46.288,25.010],[0.000000,0.000998,1.000000,0.000009],[-1,-1,0,1],[9E9,0.0,0.0,9E9,9E9,9E9]],printSpeed_0,zDef_0,bendedTool,\WObj:=ext_axis;
MoveL [[-32.681,-14.565,25.010],[0.000000,0.000998,1.000000,0.000009],[-1,-1,0,1],[9E9,0.0,0.0,9E9,9E9,9E9]],printSpeed_0,zDef_0,bendedTool,\WObj:=ext_axis;
MoveL [[-33.473,-12.678,25.010],[0.000000,0.000998,1.000000,0.000009],[-1,-1,0,1],[9E9,0.0,0.0,9E9,9E9,9E9]],printSpeed_0,zDef_0,bendedTool,\WObj:=ext_axis;
MoveL [[-95.034,-40.836,25.010],[0.000000,0.000998,1.000000,0.000009],[-1,-1,0,1],[9E9,0.0,0.0,9E9,9E9,9E9]],printSpeed_0,zDef_0,bendedTool,\WObj:=ext_axis;
MoveL [[-97.309,-35.375,25.010],[0.000000,0.000998,1.000000,0.000009],[-1,-1,0,1],[9E9,0.0,0.0,9E9,9E9,9E9]],printSpeed_0,zDef_0,bendedTool,\WObj:=ext_axis;
MoveL [[-34.148,-10.750,25.010],[0.000000,0.000998,1.000000,0.000009],[-1,-1,0,1],[9E9,0.0,0.0,9E9,9E9,9E9]],printSpeed_0,zDef_0,bendedTool,\WObj:=ext_axis;
MoveL [[-34.687,-8.775,25.010],[0.000000,0.000998,1.000000,0.000009],[-1,-1,0,1],[9E9,0.0,0.0,9E9,9E9,9E9]],printSpeed_0,zDef_0,bendedTool,\WObj:=ext_axis;
MoveL [[-99.080,-29.742,25.010],[0.000000,0.000998,1.000000,0.000009],[-1,-1,0,1],[9E9,0.0,0.0,9E9,9E9,9E9]],printSpeed_0,zDef_0,bendedTool,\WObj:=ext_axis;
MoveL [[-100.621,-24.031,25.010],[0.000000,0.000998,1.000000,0.000009],[-1,-1,0,1],[9E9,0.0,0.0,9E9,9E9,9E9]],printSpeed_0,zDef_0,bendedTool,\WObj:=ext_axis;
MoveL [[-35.181,-6.792,25.010],[0.000000,0.000998,1.000000,0.000009],[-1,-1,0,1],[9E9,0.0,0.0,9E9,9E9,9E9]],printSpeed_0,zDef_0,bendedTool,\WObj:=ext_axis;
MoveL [[-35.458,-4.764,25.010],[0.000000,0.000998,1.000000,0.000009],[-1,-1,0,1],[9E9,0.0,0.0,9E9,9E9,9E9]],printSpeed_0,zDef_0,bendedTool,\WObj:=ext_axis;
MoveL [[-101.873,-18.260,25.010],[0.000000,0.000998,1.000000,0.000009],[-1,-1,0,1],[9E9,0.0,0.0,9E9,9E9,9E9]],printSpeed_0,zDef_0,bendedTool,\WObj:=ext_axis;
MoveL [[-102.685,-12.401,25.010],[0.000000,0.000998,1.000000,0.000009],[-1,-1,0,1],[9E9,0.0,0.0,9E9,9E9,9E9]],printSpeed_0,zDef_0,bendedTool,\WObj:=ext_axis;
MoveL [[-35.736,-2.736,25.010],[0.000000,0.000998,1.000000,0.000009],[-1,-1,0,1],[9E9,0.0,0.0,9E9,9E9,9E9]],printSpeed_0,zDef_0,bendedTool,\WObj:=ext_axis;
MoveL [[-35.778,-0.691,25.010],[0.000000,0.000998,1.000000,0.000009],[0,-1,0,1],[9E9,0.0,0.0,9E9,9E9,9E9]],printSpeed_0,zDef_0,bendedTool,\WObj:=ext_axis;
MoveL [[-103.415,-6.535,25.010],[0.000000,0.000998,1.000000,0.000009],[-1,-1,0,1],[9E9,0.0,0.0,9E9,9E9,9E9]],printSpeed_0,zDef_0,bendedTool,\WObj:=ext_axis;
MoveL [[-103.428,-0.620,25.010],[0.000000,0.000998,1.000000,0.000009],[0,-1,0,1],[9E9,0.0,0.0,9E9,9E9,9E9]],printSpeed_0,zDef_0,bendedTool,\WObj:=ext_axis;
MoveL [[-35.788,1.356,25.010],[0.000000,0.000998,1.000000,0.000009],[0,0,0,1],[9E9,0.0,0.0,9E9,9E9,9E9]],printSpeed_0,zDef_0,bendedTool,\WObj:=ext_axis;
MoveL [[-35.640,3.393,25.010],[0.000000,0.000998,1.000000,0.000009],[0,0,0,1],[9E9,0.0,0.0,9E9,9E9,9E9]],printSpeed_0,zDef_0,bendedTool,\WObj:=ext_axis;
MoveL [[-103.441,5.296,25.010],[0.000000,0.000998,1.000000,0.000009],[0,0,0,1],[9E9,0.0,0.0,9E9,9E9,9E9]],printSpeed_0,zDef_0,bendedTool,\WObj:=ext_axis;
MoveL [[-102.823,11.172,25.010],[0.000000,0.000998,1.000000,0.000009],[0,0,0,1],[9E9,0.0,0.0,9E9,9E9,9E9]],printSpeed_0,zDef_0,bendedTool,\WObj:=ext_axis;
MoveL [[-35.384,5.424,25.010],[0.000000,0.000998,1.000000,0.000009],[0,0,0,1],[9E9,0.0,0.0,9E9,9E9,9E9]],printSpeed_0,zDef_0,bendedTool,\WObj:=ext_axis;
MoveL [[-35.048,7.439,25.010],[0.000000,0.000998,1.000000,0.000009],[0,0,0,1],[9E9,0.0,0.0,9E9,9E9,9E9]],printSpeed_0,zDef_0,bendedTool,\WObj:=ext_axis;
MoveL [[-102.061,17.038,25.010],[0.000000,0.000998,1.000000,0.000009],[0,0,0,1],[9E9,0.0,0.0,9E9,9E9,9E9]],printSpeed_0,zDef_0,bendedTool,\WObj:=ext_axis;
MoveL [[-100.919,22.831,25.010],[0.000000,0.000998,1.000000,0.000009],[0,0,0,1],[9E9,0.0,0.0,9E9,9E9,9E9]],printSpeed_0,zDef_0,bendedTool,\WObj:=ext_axis;
MoveL [[-34.528,9.419,25.010],[0.000000,0.000998,1.000000,0.000009],[0,0,0,1],[9E9,0.0,0.0,9E9,9E9,9E9]],printSpeed_0,zDef_0,bendedTool,\WObj:=ext_axis;
MoveL [[-34.007,11.398,25.010],[0.000000,0.000998,1.000000,0.000009],[0,0,0,1],[9E9,0.0,0.0,9E9,9E9,9E9]],printSpeed_0,zDef_0,bendedTool,\WObj:=ext_axis;
MoveL [[-99.428,28.555,25.010],[0.000000,0.000998,1.000000,0.000009],[0,0,0,1],[9E9,0.0,0.0,9E9,9E9,9E9]],printSpeed_0,zDef_0,bendedTool,\WObj:=ext_axis;
MoveL [[-97.761,34.221,25.010],[0.000000,0.000998,1.000000,0.000009],[0,0,0,1],[9E9,0.0,0.0,9E9,9E9,9E9]],printSpeed_0,zDef_0,bendedTool,\WObj:=ext_axis;
MoveL [[-33.233,13.293,25.010],[0.000000,0.000998,1.000000,0.000009],[0,0,0,1],[9E9,0.0,0.0,9E9,9E9,9E9]],printSpeed_0,zDef_0,bendedTool,\WObj:=ext_axis;
MoveL [[-32.458,15.187,25.010],[0.000000,0.000998,1.000000,0.000009],[0,0,0,1],[9E9,0.0,0.0,9E9,9E9,9E9]],printSpeed_0,zDef_0,bendedTool,\WObj:=ext_axis;
MoveL [[-95.510,39.692,25.010],[0.000000,0.000998,1.000000,0.000009],[0,0,0,1],[9E9,0.0,0.0,9E9,9E9,9E9]],printSpeed_0,zDef_0,bendedTool,\WObj:=ext_axis;
MoveL [[-93.258,45.162,25.010],[0.000000,0.000998,1.000000,0.000009],[0,0,0,1],[9E9,0.0,0.0,9E9,9E9,9E9]],printSpeed_0,zDef_0,bendedTool,\WObj:=ext_axis;
MoveL [[-31.514,16.999,25.010],[0.000000,0.000998,1.000000,0.000009],[0,0,0,1],[9E9,0.0,0.0,9E9,9E9,9E9]],printSpeed_0,zDef_0,bendedTool,\WObj:=ext_axis;
MoveL [[-30.498,18.776,25.010],[0.000000,0.000998,1.000000,0.000009],[0,0,0,1],[9E9,0.0,0.0,9E9,9E9,9E9]],printSpeed_0,zDef_0,bendedTool,\WObj:=ext_axis;
MoveL [[-90.352,50.311,25.010],[0.000000,0.000998,1.000000,0.000009],[0,0,0,1],[9E9,0.0,0.0,9E9,9E9,9E9]],printSpeed_0,zDef_0,bendedTool,\WObj:=ext_axis;
MoveL [[-87.404,55.440,25.010],[0.000000,0.000998,1.000000,0.000009],[0,0,0,1],[9E9,0.0,0.0,9E9,9E9,9E9]],printSpeed_0,zDef_0,bendedTool,\WObj:=ext_axis;
MoveL [[-29.392,20.493,25.010],[0.000000,0.000998,1.000000,0.000009],[0,0,0,1],[9E9,0.0,0.0,9E9,9E9,9E9]],printSpeed_0,zDef_0,bendedTool,\WObj:=ext_axis;
MoveL [[-28.152,22.122,25.010],[0.000000,0.000998,1.000000,0.000009],[0,0,0,1],[9E9,0.0,0.0,9E9,9E9,9E9]],printSpeed_0,zDef_0,bendedTool,\WObj:=ext_axis;
MoveL [[-84.054,60.303,25.010],[0.000000,0.000998,1.000000,0.000009],[0,0,0,1],[9E9,0.0,0.0,9E9,9E9,9E9]],printSpeed_0,zDef_0,bendedTool,\WObj:=ext_axis;
MoveL [[-80.486,65.022,25.010],[0.000000,0.000998,1.000000,0.000009],[0,0,0,1],[9E9,0.0,0.0,9E9,9E9,9E9]],printSpeed_0,zDef_0,bendedTool,\WObj:=ext_axis;
MoveL [[-26.891,23.732,25.010],[0.000000,0.000998,1.000000,0.000009],[0,0,0,1],[9E9,0.0,0.0,9E9,9E9,9E9]],printSpeed_0,zDef_0,bendedTool,\WObj:=ext_axis;
MoveL [[-25.449,25.185,25.010],[0.000000,0.000998,1.000000,0.000009],[0,0,0,1],[9E9,0.0,0.0,9E9,9E9,9E9]],printSpeed_0,zDef_0,bendedTool,\WObj:=ext_axis;
MoveL [[-76.702,69.552,25.010],[0.000000,0.000998,1.000000,0.000009],[0,0,0,1],[9E9,0.0,0.0,9E9,9E9,9E9]],printSpeed_0,zDef_0,bendedTool,\WObj:=ext_axis;
MoveL [[-72.528,73.745,25.010],[0.000000,0.000998,1.000000,0.000009],[0,0,0,1],[9E9,0.0,0.0,9E9,9E9,9E9]],printSpeed_0,zDef_0,bendedTool,\WObj:=ext_axis;
MoveL [[-24.008,26.638,25.010],[0.000000,0.000998,1.000000,0.000009],[0,0,0,1],[9E9,0.0,0.0,9E9,9E9,9E9]],printSpeed_0,zDef_0,bendedTool,\WObj:=ext_axis;
MoveL [[-22.423,27.929,25.010],[0.000000,0.000998,1.000000,0.000009],[0,0,0,1],[9E9,0.0,0.0,9E9,9E9,9E9]],printSpeed_0,zDef_0,bendedTool,\WObj:=ext_axis;
MoveL [[-68.321,77.899,25.010],[0.000000,0.000998,1.000000,0.000009],[0,0,0,1],[9E9,0.0,0.0,9E9,9E9,9E9]],printSpeed_0,zDef_0,bendedTool,\WObj:=ext_axis;
MoveL [[-63.635,81.509,25.010],[0.000000,0.000998,1.000000,0.000009],[0,0,0,1],[9E9,0.0,0.0,9E9,9E9,9E9]],printSpeed_0,zDef_0,bendedTool,\WObj:=ext_axis;
MoveL [[-20.805,29.182,25.010],[0.000000,0.000998,1.000000,0.000009],[0,0,0,1],[9E9,0.0,0.0,9E9,9E9,9E9]],printSpeed_0,zDef_0,bendedTool,\WObj:=ext_axis;
MoveL [[-19.108,30.320,25.010],[0.000000,0.000998,1.000000,0.000009],[0,0,0,1],[9E9,0.0,0.0,9E9,9E9,9E9]],printSpeed_0,zDef_0,bendedTool,\WObj:=ext_axis;
MoveL [[-58.949,85.120,25.010],[0.000000,0.000998,1.000000,0.000009],[0,0,0,1],[9E9,0.0,0.0,9E9,9E9,9E9]],printSpeed_0,zDef_0,bendedTool,\WObj:=ext_axis;
MoveL [[-53.940,88.253,25.010],[0.000000,0.000998,1.000000,0.000009],[0,0,0,1],[9E9,0.0,0.0,9E9,9E9,9E9]],printSpeed_0,zDef_0,bendedTool,\WObj:=ext_axis;
MoveL [[-17.341,31.354,25.010],[0.000000,0.000998,1.000000,0.000009],[0,0,0,1],[9E9,0.0,0.0,9E9,9E9,9E9]],printSpeed_0,zDef_0,bendedTool,\WObj:=ext_axis;
MoveL [[-15.544,32.327,25.010],[0.000000,0.000998,1.000000,0.000009],[0,0,0,1],[9E9,0.0,0.0,9E9,9E9,9E9]],printSpeed_0,zDef_0,bendedTool,\WObj:=ext_axis;
MoveL [[-48.839,91.248,25.010],[0.000000,0.000998,1.000000,0.000009],[0,0,0,1],[9E9,0.0,0.0,9E9,9E9,9E9]],printSpeed_0,zDef_0,bendedTool,\WObj:=ext_axis;
MoveL [[-43.564,93.895,25.010],[0.000000,0.000998,1.000000,0.000009],[0,0,0,1],[9E9,0.0,0.0,9E9,9E9,9E9]],printSpeed_0,zDef_0,bendedTool,\WObj:=ext_axis;
MoveL [[-13.658,33.120,25.010],[0.000000,0.000998,1.000000,0.000009],[0,0,0,1],[9E9,0.0,0.0,9E9,9E9,9E9]],printSpeed_0,zDef_0,bendedTool,\WObj:=ext_axis;
MoveL [[-11.771,33.913,25.010],[0.000000,0.000998,1.000000,0.000009],[0,0,0,1],[9E9,0.0,0.0,9E9,9E9,9E9]],printSpeed_0,zDef_0,bendedTool,\WObj:=ext_axis;
MoveL [[-38.104,96.171,25.010],[0.000000,0.000998,1.000000,0.000009],[0,0,0,1],[9E9,0.0,0.0,9E9,9E9,9E9]],printSpeed_0,zDef_0,bendedTool,\WObj:=ext_axis;
MoveL [[-32.595,98.307,25.010],[0.000000,0.000998,1.000000,0.000009],[0,0,0,1],[9E9,0.0,0.0,9E9,9E9,9E9]],printSpeed_0,zDef_0,bendedTool,\WObj:=ext_axis;
MoveL [[-9.801,34.467,25.010],[0.000000,0.000998,1.000000,0.000009],[0,0,0,1],[9E9,0.0,0.0,9E9,9E9,9E9]],printSpeed_0,zDef_0,bendedTool,\WObj:=ext_axis;
MoveL [[-7.827,35.008,25.010],[0.000000,0.000998,1.000000,0.000009],[0,0,0,1],[9E9,0.0,0.0,9E9,9E9,9E9]],printSpeed_0,zDef_0,bendedTool,\WObj:=ext_axis;
MoveL [[-26.884,99.849,25.010],[0.000000,0.000998,1.000000,0.000009],[0,0,0,1],[9E9,0.0,0.0,9E9,9E9,9E9]],printSpeed_0,zDef_0,bendedTool,\WObj:=ext_axis;
MoveL [[-21.173,101.392,25.010],[0.000000,0.000998,1.000000,0.000009],[0,0,0,1],[9E9,0.0,0.0,9E9,9E9,9E9]],printSpeed_0,zDef_0,bendedTool,\WObj:=ext_axis;
MoveL [[-5.817,35.372,25.010],[0.000000,0.000998,1.000000,0.000009],[0,0,0,1],[9E9,0.0,0.0,9E9,9E9,9E9]],printSpeed_0,zDef_0,bendedTool,\WObj:=ext_axis;
MoveL [[-3.788,35.645,25.010],[0.000000,0.000998,1.000000,0.000009],[0,0,0,1],[9E9,0.0,0.0,9E9,9E9,9E9]],printSpeed_0,zDef_0,bendedTool,\WObj:=ext_axis;
MoveL [[-15.329,102.279,25.010],[0.000000,0.000998,1.000000,0.000009],[0,0,0,1],[9E9,0.0,0.0,9E9,9E9,9E9]],printSpeed_0,zDef_0,bendedTool,\WObj:=ext_axis;
MoveL [[-9.469,103.093,25.010],[0.000000,0.000998,1.000000,0.000009],[0,0,0,1],[9E9,0.0,0.0,9E9,9E9,9E9]],printSpeed_0,zDef_0,bendedTool,\WObj:=ext_axis;
MoveL [[-1.753,35.822,25.010],[0.000000,0.000998,1.000000,0.000009],[0,0,0,1],[9E9,0.0,0.0,9E9,9E9,9E9]],printSpeed_0,zDef_0,bendedTool,\WObj:=ext_axis;
MoveL [[0.294,35.827,25.010],[0.000000,0.000998,1.000000,0.000009],[0,0,0,1],[9E9,0.0,0.0,9E9,9E9,9E9]],printSpeed_0,zDef_0,bendedTool,\WObj:=ext_axis;
MoveL [[-3.576,103.421,25.010],[0.000000,0.000998,1.000000,0.000009],[0,0,0,1],[9E9,0.0,0.0,9E9,9E9,9E9]],printSpeed_0,zDef_0,bendedTool,\WObj:=ext_axis;
MoveL [[2.340,103.434,25.010],[0.000000,0.000998,1.000000,0.000009],[0,0,0,1],[9E9,0.0,0.0,9E9,9E9,9E9]],printSpeed_0,zDef_0,bendedTool,\WObj:=ext_axis;
MoveL [[2.339,35.813,25.010],[0.000000,0.000998,1.000000,0.000009],[0,0,0,1],[9E9,0.0,0.0,9E9,9E9,9E9]],printSpeed_0,zDef_0,bendedTool,\WObj:=ext_axis;
MoveL [[4.369,35.552,25.010],[0.000000,0.000998,1.000000,0.000009],[0,0,0,1],[9E9,0.0,0.0,9E9,9E9,9E9]],printSpeed_0,zDef_0,bendedTool,\WObj:=ext_axis;
MoveL [[8.240,103.204,25.010],[0.000000,0.000998,1.000000,0.000009],[0,0,0,1],[9E9,0.0,0.0,9E9,9E9,9E9]],printSpeed_0,zDef_0,bendedTool,\WObj:=ext_axis;
MoveL [[14.107,102.442,25.010],[0.000000,0.000998,1.000000,0.000009],[0,0,0,1],[9E9,0.0,0.0,9E9,9E9,9E9]],printSpeed_0,zDef_0,bendedTool,\WObj:=ext_axis;
MoveL [[6.399,35.291,25.010],[0.000000,0.000998,1.000000,0.000009],[0,0,0,1],[9E9,0.0,0.0,9E9,9E9,9E9]],printSpeed_0,zDef_0,bendedTool,\WObj:=ext_axis;
MoveL [[8.390,34.829,25.010],[0.000000,0.000998,1.000000,0.000009],[0,0,0,1],[9E9,0.0,0.0,9E9,9E9,9E9]],printSpeed_0,zDef_0,bendedTool,\WObj:=ext_axis;
MoveL [[19.970,101.666,25.010],[0.000000,0.000998,1.000000,0.000009],[0,0,0,1],[9E9,0.0,0.0,9E9,9E9,9E9]],printSpeed_0,zDef_0,bendedTool,\WObj:=ext_axis;
MoveL [[25.695,100.173,25.010],[0.000000,0.000998,1.000000,0.000009],[0,0,0,1],[9E9,0.0,0.0,9E9,9E9,9E9]],printSpeed_0,zDef_0,bendedTool,\WObj:=ext_axis;
MoveL [[10.368,34.303,25.010],[0.000000,0.000998,1.000000,0.000009],[0,0,0,1],[9E9,0.0,0.0,9E9,9E9,9E9]],printSpeed_0,zDef_0,bendedTool,\WObj:=ext_axis;
MoveL [[12.307,33.659,25.010],[0.000000,0.000998,1.000000,0.000009],[0,0,0,1],[9E9,0.0,0.0,9E9,9E9,9E9]],printSpeed_0,zDef_0,bendedTool,\WObj:=ext_axis;
MoveL [[31.419,98.681,25.010],[0.000000,0.000998,1.000000,0.000009],[0,0,0,1],[9E9,0.0,0.0,9E9,9E9,9E9]],printSpeed_0,zDef_0,bendedTool,\WObj:=ext_axis;
MoveL [[36.959,96.636,25.010],[0.000000,0.000998,1.000000,0.000009],[0,0,0,1],[9E9,0.0,0.0,9E9,9E9,9E9]],printSpeed_0,zDef_0,bendedTool,\WObj:=ext_axis;
MoveL [[14.199,32.880,25.010],[0.000000,0.000998,1.000000,0.000009],[0,0,0,1],[9E9,0.0,0.0,9E9,9E9,9E9]],printSpeed_0,zDef_0,bendedTool,\WObj:=ext_axis;
MoveL [[16.072,32.060,25.010],[0.000000,0.000998,1.000000,0.000009],[0,0,0,1],[9E9,0.0,0.0,9E9,9E9,9E9]],printSpeed_0,zDef_0,bendedTool,\WObj:=ext_axis;
MoveL [[42.429,94.384,25.010],[0.000000,0.000998,1.000000,0.000009],[0,0,0,1],[9E9,0.0,0.0,9E9,9E9,9E9]],printSpeed_0,zDef_0,bendedTool,\WObj:=ext_axis;
MoveL [[47.750,91.828,25.010],[0.000000,0.000998,1.000000,0.000009],[0,0,0,1],[9E9,0.0,0.0,9E9,9E9,9E9]],printSpeed_0,zDef_0,bendedTool,\WObj:=ext_axis;
MoveL [[17.847,31.040,25.010],[0.000000,0.000998,1.000000,0.000009],[0,0,0,1],[9E9,0.0,0.0,9E9,9E9,9E9]],printSpeed_0,zDef_0,bendedTool,\WObj:=ext_axis;
MoveL [[19.622,30.020,25.010],[0.000000,0.000998,1.000000,0.000009],[0,0,0,1],[9E9,0.0,0.0,9E9,9E9,9E9]],printSpeed_0,zDef_0,bendedTool,\WObj:=ext_axis;
MoveL [[52.878,88.878,25.010],[0.000000,0.000998,1.000000,0.000009],[0,0,0,1],[9E9,0.0,0.0,9E9,9E9,9E9]],printSpeed_0,zDef_0,bendedTool,\WObj:=ext_axis;
MoveL [[57.946,85.838,25.010],[0.000000,0.000998,1.000000,0.000009],[0,0,0,1],[9E9,0.0,0.0,9E9,9E9,9E9]],printSpeed_0,zDef_0,bendedTool,\WObj:=ext_axis;
MoveL [[21.267,28.805,25.010],[0.000000,0.000998,1.000000,0.000009],[0,0,0,1],[9E9,0.0,0.0,9E9,9E9,9E9]],printSpeed_0,zDef_0,bendedTool,\WObj:=ext_axis;
MoveL [[22.893,27.563,25.010],[0.000000,0.000998,1.000000,0.000009],[0,0,0,1],[9E9,0.0,0.0,9E9,9E9,9E9]],printSpeed_0,zDef_0,bendedTool,\WObj:=ext_axis;
MoveL [[62.664,82.270,25.010],[0.000000,0.000998,1.000000,0.000009],[0,0,0,1],[9E9,0.0,0.0,9E9,9E9,9E9]],printSpeed_0,zDef_0,bendedTool,\WObj:=ext_axis;
MoveL [[67.383,78.702,25.010],[0.000000,0.000998,1.000000,0.000009],[0,0,0,1],[9E9,0.0,0.0,9E9,9E9,9E9]],printSpeed_0,zDef_0,bendedTool,\WObj:=ext_axis;
MoveL [[24.416,26.202,25.010],[0.000000,0.000998,1.000000,0.000009],[0,0,0,1],[9E9,0.0,0.0,9E9,9E9,9E9]],printSpeed_0,zDef_0,bendedTool,\WObj:=ext_axis;
MoveL [[25.867,24.758,25.010],[0.000000,0.000998,1.000000,0.000009],[0,0,0,1],[9E9,0.0,0.0,9E9,9E9,9E9]],printSpeed_0,zDef_0,bendedTool,\WObj:=ext_axis;
MoveL [[71.651,74.615,25.010],[0.000000,0.000998,1.000000,0.000009],[0,0,0,1],[9E9,0.0,0.0,9E9,9E9,9E9]],printSpeed_0,zDef_0,bendedTool,\WObj:=ext_axis;
MoveL [[75.843,70.442,25.010],[0.000000,0.000998,1.000000,0.000009],[0,0,0,1],[9E9,0.0,0.0,9E9,9E9,9E9]],printSpeed_0,zDef_0,bendedTool,\WObj:=ext_axis;
MoveL [[27.258,23.261,25.010],[0.000000,0.000998,1.000000,0.000009],[0,0,0,1],[9E9,0.0,0.0,9E9,9E9,9E9]],printSpeed_0,zDef_0,bendedTool,\WObj:=ext_axis;
MoveL [[28.508,21.641,25.010],[0.000000,0.000998,1.000000,0.000009],[0,0,0,1],[9E9,0.0,0.0,9E9,9E9,9E9]],printSpeed_0,zDef_0,bendedTool,\WObj:=ext_axis;
MoveL [[79.706,65.978,25.010],[0.000000,0.000998,1.000000,0.000009],[0,0,0,1],[9E9,0.0,0.0,9E9,9E9,9E9]],printSpeed_0,zDef_0,bendedTool,\WObj:=ext_axis;
MoveL [[83.317,61.292,25.010],[0.000000,0.000998,1.000000,0.000009],[0,0,0,1],[9E9,0.0,0.0,9E9,9E9,9E9]],printSpeed_0,zDef_0,bendedTool,\WObj:=ext_axis;
MoveL [[29.758,20.020,25.010],[0.000000,0.000998,1.000000,0.000009],[0,0,0,1],[9E9,0.0,0.0,9E9,9E9,9E9]],printSpeed_0,zIns_0,bendedTool,\WObj:=ext_axis;
stopContinuousWeld \preStopWeldDelay:=delayClosedStop_0 \postGasTime:=postGas_0;
MoveL [[29.758,20.020,75.010],[0.000000,0.000998,1.000000,0.000009],[0,0,0,1],[9E9,0.0,0.0,9E9,9E9,9E9]],moveSpeed_0,zDef_0,bendedTool,\WObj:=ext_axis;
MoveL [[-27.471,-22.919,79.210],[0.000000,0.000998,1.000000,0.000009],[-1,-1,0,1],[9E9,0.0,0.0,9E9,9E9,9E9]],moveSpeed_0,zDef_0,bendedTool,\WObj:=ext_axis;
MoveL [[-27.471,-22.919,29.210],[0.000000,0.000998,1.000000,0.000009],[-1,-1,0,1],[9E9,0.0,0.0,9E9,9E9,9E9]],moveSpeed_0,zIns_0,bendedTool,\WObj:=ext_axis;
waitInterpass useTempSensor0, wTime_5;
TPWrite "[4.1%] PRT0 LYR1 TRK0 (29.2mm)";
startContinuousWeld \preGasTime:=preGas_0 \postStartWeldDelay:=delayClosedStart_0 \weldingProgram:=27 \weldId:="0000-0001-0000-0002";
MoveL [[-81.020,-64.228,29.210],[0.000000,0.000998,1.000000,0.000009],[-1,-1,0,1],[9E9,0.0,0.0,9E9,9E9,9E9]],printSpeed_0,zDef_0,bendedTool,\WObj:=ext_axis;
MoveL [[-77.370,-68.877,29.210],[0.000000,0.000998,1.000000,0.000009],[-1,-1,0,1],[9E9,0.0,0.0,9E9,9E9,9E9]],printSpeed_0,zDef_0,bendedTool,\WObj:=ext_axis;
MoveL [[-26.118,-24.448,29.210],[0.000000,0.000998,1.000000,0.000009],[-1,-1,0,1],[9E9,0.0,0.0,9E9,9E9,9E9]],printSpeed_0,zDef_0,bendedTool,\WObj:=ext_axis;
MoveL [[-24.666,-25.889,29.210],[0.000000,0.000998,1.000000,0.000009],[-1,-1,0,1],[9E9,0.0,0.0,9E9,9E9,9E9]],printSpeed_0,zDef_0,bendedTool,\WObj:=ext_axis;
MoveL [[-73.174,-73.044,29.210],[0.000000,0.000998,1.000000,0.000009],[-1,-1,0,1],[9E9,0.0,0.0,9E9,9E9,9E9]],printSpeed_0,zDef_0,bendedTool,\WObj:=ext_axis;
MoveL [[-68.982,-77.216,29.210],[0.000000,0.000998,1.000000,0.000009],[-1,-1,0,1],[9E9,0.0,0.0,9E9,9E9,9E9]],printSpeed_0,zDef_0,bendedTool,\WObj:=ext_axis;
MoveL [[-23.177,-27.287,29.210],[0.000000,0.000998,1.000000,0.000009],[-1,-1,0,1],[9E9,0.0,0.0,9E9,9E9,9E9]],printSpeed_0,zDef_0,bendedTool,\WObj:=ext_axis;
MoveL [[-21.548,-28.525,29.210],[0.000000,0.000998,1.000000,0.000009],[-1,-1,0,1],[9E9,0.0,0.0,9E9,9E9,9E9]],printSpeed_0,zDef_0,bendedTool,\WObj:=ext_axis;
MoveL [[-64.382,-80.918,29.210],[0.000000,0.000998,1.000000,0.000009],[-1,-1,0,1],[9E9,0.0,0.0,9E9,9E9,9E9]],printSpeed_0,zDef_0,bendedTool,\WObj:=ext_axis;
MoveL [[-59.675,-84.499,29.210],[0.000000,0.000998,1.000000,0.000009],[-1,-1,0,1],[9E9,0.0,0.0,9E9,9E9,9E9]],printSpeed_0,zDef_0,bendedTool,\WObj:=ext_axis;
MoveL [[-19.920,-29.763,29.210],[0.000000,0.000998,1.000000,0.000009],[-1,-1,0,1],[9E9,0.0,0.0,9E9,9E9,9E9]],printSpeed_0,zDef_0,bendedTool,\WObj:=ext_axis;
MoveL [[-18.157,-30.798,29.210],[0.000000,0.000998,1.000000,0.000009],[-1,-1,0,1],[9E9,0.0,0.0,9E9,9E9,9E9]],printSpeed_0,zDef_0,bendedTool,\WObj:=ext_axis;
MoveL [[-54.764,-87.772,29.210],[0.000000,0.000998,1.000000,0.000009],[-1,-1,0,1],[9E9,0.0,0.0,9E9,9E9,9E9]],printSpeed_0,zDef_0,bendedTool,\WObj:=ext_axis;
MoveL [[-49.635,-90.718,29.210],[0.000000,0.000998,1.000000,0.000009],[-1,-1,0,1],[9E9,0.0,0.0,9E9,9E9,9E9]],printSpeed_0,zDef_0,bendedTool,\WObj:=ext_axis;
MoveL [[-16.381,-31.813,29.210],[0.000000,0.000998,1.000000,0.000009],[-1,-1,0,1],[9E9,0.0,0.0,9E9,9E9,9E9]],printSpeed_0,zDef_0,bendedTool,\WObj:=ext_axis;
MoveL [[-14.532,-32.679,29.210],[0.000000,0.000998,1.000000,0.000009],[-1,-1,0,1],[9E9,0.0,0.0,9E9,9E9,9E9]],printSpeed_0,zDef_0,bendedTool,\WObj:=ext_axis;
MoveL [[-44.439,-93.526,29.210],[0.000000,0.000998,1.000000,0.000009],[-1,-1,0,1],[9E9,0.0,0.0,9E9,9E9,9E9]],printSpeed_0,zDef_0,bendedTool,\WObj:=ext_axis;
MoveL [[-38.970,-95.775,29.210],[0.000000,0.000998,1.000000,0.000009],[-1,-1,0,1],[9E9,0.0,0.0,9E9,9E9,9E9]],printSpeed_0,zDef_0,bendedTool,\WObj:=ext_axis;
MoveL [[-12.638,-33.453,29.210],[0.000000,0.000998,1.000000,0.000009],[-1,-1,0,1],[9E9,0.0,0.0,9E9,9E9,9E9]],printSpeed_0,zDef_0,bendedTool,\WObj:=ext_axis;
MoveL [[-10.717,-34.144,29.210],[0.000000,0.000998,1.000000,0.000009],[-1,-1,0,1],[9E9,0.0,0.0,9E9,9E9,9E9]],printSpeed_0,zDef_0,bendedTool,\WObj:=ext_axis;
MoveL [[-33.498,-98.019,29.210],[0.000000,0.000998,1.000000,0.000009],[-1,-1,0,1],[9E9,0.0,0.0,9E9,9E9,9E9]],printSpeed_0,zDef_0,bendedTool,\WObj:=ext_axis;
MoveL [[-27.799,-99.585,29.210],[0.000000,0.000998,1.000000,0.000009],[-1,-1,0,1],[9E9,0.0,0.0,9E9,9E9,9E9]],printSpeed_0,zDef_0,bendedTool,\WObj:=ext_axis;
MoveL [[-8.739,-34.666,29.210],[0.000000,0.000998,1.000000,0.000009],[-1,-1,0,1],[9E9,0.0,0.0,9E9,9E9,9E9]],printSpeed_0,zDef_0,bendedTool,\WObj:=ext_axis;
MoveL [[-6.758,-35.175,29.210],[0.000000,0.000998,1.000000,0.000009],[-1,-1,0,1],[9E9,0.0,0.0,9E9,9E9,9E9]],printSpeed_0,zDef_0,bendedTool,\WObj:=ext_axis;
MoveL [[-22.081,-101.093,29.210],[0.000000,0.000998,1.000000,0.000009],[-1,-1,0,1],[9E9,0.0,0.0,9E9,9E9,9E9]],printSpeed_0,zDef_0,bendedTool,\WObj:=ext_axis;
MoveL [[-16.273,-102.144,29.210],[0.000000,0.000998,1.000000,0.000009],[-1,-1,0,1],[9E9,0.0,0.0,9E9,9E9,9E9]],printSpeed_0,zDef_0,bendedTool,\WObj:=ext_axis;
MoveL [[-4.729,-35.432,29.210],[0.000000,0.000998,1.000000,0.000009],[-1,-1,0,1],[9E9,0.0,0.0,9E9,9E9,9E9]],printSpeed_0,zDef_0,bendedTool,\WObj:=ext_axis;
MoveL [[-2.700,-35.690,29.210],[0.000000,0.000998,1.000000,0.000009],[-1,-1,0,1],[9E9,0.0,0.0,9E9,9E9,9E9]],printSpeed_0,zDef_0,bendedTool,\WObj:=ext_axis;
MoveL [[-10.407,-102.904,29.210],[0.000000,0.000998,1.000000,0.000009],[-1,-1,0,1],[9E9,0.0,0.0,9E9,9E9,9E9]],printSpeed_0,zDef_0,bendedTool,\WObj:=ext_axis;
MoveL [[-4.526,-103.415,29.210],[0.000000,0.000998,1.000000,0.000009],[-1,-1,0,1],[9E9,0.0,0.0,9E9,9E9,9E9]],printSpeed_0,zDef_0,bendedTool,\WObj:=ext_axis;
MoveL [[-0.658,-35.747,29.210],[0.000000,0.000998,1.000000,0.000009],[-1,-1,0,1],[9E9,0.0,0.0,9E9,9E9,9E9]],printSpeed_0,zDef_0,bendedTool,\WObj:=ext_axis;
MoveL [[1.388,-35.739,29.210],[0.000000,0.000998,1.000000,0.000009],[-1,-1,0,1],[9E9,0.0,0.0,9E9,9E9,9E9]],printSpeed_0,zDef_0,bendedTool,\WObj:=ext_axis;
MoveL [[1.388,-103.400,29.210],[0.000000,0.000998,1.000000,0.000009],[-1,-1,0,1],[9E9,0.0,0.0,9E9,9E9,9E9]],printSpeed_0,zDef_0,bendedTool,\WObj:=ext_axis;
MoveL [[7.300,-103.362,29.210],[0.000000,0.000998,1.000000,0.000009],[-1,-1,0,1],[9E9,0.0,0.0,9E9,9E9,9E9]],printSpeed_0,zDef_0,bendedTool,\WObj:=ext_axis;
MoveL [[3.425,-35.608,29.210],[0.000000,0.000998,1.000000,0.000009],[-1,-1,0,1],[9E9,0.0,0.0,9E9,9E9,9E9]],printSpeed_0,zDef_0,bendedTool,\WObj:=ext_axis;
MoveL [[5.452,-35.334,29.210],[0.000000,0.000998,1.000000,0.000009],[-1,-1,0,1],[9E9,0.0,0.0,9E9,9E9,9E9]],printSpeed_0,zDef_0,bendedTool,\WObj:=ext_axis;
MoveL [[13.160,-102.559,29.210],[0.000000,0.000998,1.000000,0.000009],[-1,-1,0,1],[9E9,0.0,0.0,9E9,9E9,9E9]],printSpeed_0,zDef_0,bendedTool,\WObj:=ext_axis;
MoveL [[19.018,-101.751,29.210],[0.000000,0.000998,1.000000,0.000009],[-1,-1,0,1],[9E9,0.0,0.0,9E9,9E9,9E9]],printSpeed_0,zDef_0,bendedTool,\WObj:=ext_axis;
MoveL [[7.470,-35.013,29.210],[0.000000,0.000998,1.000000,0.000009],[-1,-1,0,1],[9E9,0.0,0.0,9E9,9E9,9E9]],printSpeed_0,zDef_0,bendedTool,\WObj:=ext_axis;
MoveL [[9.444,-34.476,29.210],[0.000000,0.000998,1.000000,0.000009],[-1,-1,0,1],[9E9,0.0,0.0,9E9,9E9,9E9]],printSpeed_0,zDef_0,bendedTool,\WObj:=ext_axis;
MoveL [[24.766,-100.399,29.210],[0.000000,0.000998,1.000000,0.000009],[-1,-1,0,1],[9E9,0.0,0.0,9E9,9E9,9E9]],printSpeed_0,zDef_0,bendedTool,\WObj:=ext_axis;
MoveL [[30.475,-98.855,29.210],[0.000000,0.000998,1.000000,0.000009],[-1,-1,0,1],[9E9,0.0,0.0,9E9,9E9,9E9]],printSpeed_0,zDef_0,bendedTool,\WObj:=ext_axis;
MoveL [[11.418,-33.938,29.210],[0.000000,0.000998,1.000000,0.000009],[-1,-1,0,1],[9E9,0.0,0.0,9E9,9E9,9E9]],printSpeed_0,zDef_0,bendedTool,\WObj:=ext_axis;
MoveL [[13.315,-33.178,29.210],[0.000000,0.000998,1.000000,0.000009],[-1,-1,0,1],[9E9,0.0,0.0,9E9,9E9,9E9]],printSpeed_0,zDef_0,bendedTool,\WObj:=ext_axis;
MoveL [[36.073,-96.986,29.210],[0.000000,0.000998,1.000000,0.000009],[-1,-1,0,1],[9E9,0.0,0.0,9E9,9E9,9E9]],printSpeed_0,zDef_0,bendedTool,\WObj:=ext_axis;
MoveL [[41.531,-94.709,29.210],[0.000000,0.000998,1.000000,0.000009],[-1,-1,0,1],[9E9,0.0,0.0,9E9,9E9,9E9]],printSpeed_0,zDef_0,bendedTool,\WObj:=ext_axis;
MoveL [[15.202,-32.388,29.210],[0.000000,0.000998,1.000000,0.000009],[-1,-1,0,1],[9E9,0.0,0.0,9E9,9E9,9E9]],printSpeed_0,zDef_0,bendedTool,\WObj:=ext_axis;
MoveL [[17.018,-31.456,29.210],[0.000000,0.000998,1.000000,0.000009],[-1,-1,0,1],[9E9,0.0,0.0,9E9,9E9,9E9]],printSpeed_0,zDef_0,bendedTool,\WObj:=ext_axis;
MoveL [[46.935,-92.323,29.210],[0.000000,0.000998,1.000000,0.000009],[-1,-1,0,1],[9E9,0.0,0.0,9E9,9E9,9E9]],printSpeed_0,zDef_0,bendedTool,\WObj:=ext_axis;
MoveL [[52.038,-89.335,29.210],[0.000000,0.000998,1.000000,0.000009],[-1,-1,0,1],[9E9,0.0,0.0,9E9,9E9,9E9]],printSpeed_0,zDef_0,bendedTool,\WObj:=ext_axis;
MoveL [[18.785,-30.425,29.210],[0.000000,0.000998,1.000000,0.000009],[-1,-1,0,1],[9E9,0.0,0.0,9E9,9E9,9E9]],printSpeed_0,zDef_0,bendedTool,\WObj:=ext_axis;
MoveL [[20.508,-29.329,29.210],[0.000000,0.000998,1.000000,0.000009],[-1,-1,0,1],[9E9,0.0,0.0,9E9,9E9,9E9]],printSpeed_0,zDef_0,bendedTool,\WObj:=ext_axis;
MoveL [[57.146,-86.353,29.210],[0.000000,0.000998,1.000000,0.000009],[-1,-1,0,1],[9E9,0.0,0.0,9E9,9E9,9E9]],printSpeed_0,zDef_0,bendedTool,\WObj:=ext_axis;
MoveL [[61.891,-82.832,29.210],[0.000000,0.000998,1.000000,0.000009],[-1,-1,0,1],[9E9,0.0,0.0,9E9,9E9,9E9]],printSpeed_0,zDef_0,bendedTool,\WObj:=ext_axis;
MoveL [[22.126,-28.077,29.210],[0.000000,0.000998,1.000000,0.000009],[-1,-1,0,1],[9E9,0.0,0.0,9E9,9E9,9E9]],printSpeed_0,zDef_0,bendedTool,\WObj:=ext_axis;
MoveL [[23.743,-26.824,29.210],[0.000000,0.000998,1.000000,0.000009],[-1,-1,0,1],[9E9,0.0,0.0,9E9,9E9,9E9]],printSpeed_0,zDef_0,bendedTool,\WObj:=ext_axis;
MoveL [[66.572,-79.218,29.210],[0.000000,0.000998,1.000000,0.000009],[-1,-1,0,1],[9E9,0.0,0.0,9E9,9E9,9E9]],printSpeed_0,zDef_0,bendedTool,\WObj:=ext_axis;
MoveL [[70.966,-75.278,29.210],[0.000000,0.000998,1.000000,0.000009],[-1,-1,0,1],[9E9,0.0,0.0,9E9,9E9,9E9]],printSpeed_0,zDef_0,bendedTool,\WObj:=ext_axis;
MoveL [[25.183,-25.372,29.210],[0.000000,0.000998,1.000000,0.000009],[-1,-1,0,1],[9E9,0.0,0.0,9E9,9E9,9E9]],printSpeed_0,zDef_0,bendedTool,\WObj:=ext_axis;
MoveL [[26.624,-23.919,29.210],[0.000000,0.000998,1.000000,0.000009],[-1,-1,0,1],[9E9,0.0,0.0,9E9,9E9,9E9]],printSpeed_0,zDef_0,bendedTool,\WObj:=ext_axis;
MoveL [[75.136,-71.084,29.210],[0.000000,0.000998,1.000000,0.000009],[-1,-1,0,1],[9E9,0.0,0.0,9E9,9E9,9E9]],printSpeed_0,zDef_0,bendedTool,\WObj:=ext_axis;
MoveL [[79.141,-66.747,29.210],[0.000000,0.000998,1.000000,0.000009],[-1,-1,0,1],[9E9,0.0,0.0,9E9,9E9,9E9]],printSpeed_0,zDef_0,bendedTool,\WObj:=ext_axis;
MoveL [[27.920,-22.341,29.210],[0.000000,0.000998,1.000000,0.000009],[-1,-1,0,1],[9E9,0.0,0.0,9E9,9E9,9E9]],printSpeed_0,zDef_0,bendedTool,\WObj:=ext_axis;
MoveL [[29.159,-20.713,29.210],[0.000000,0.000998,1.000000,0.000009],[-1,-1,0,1],[9E9,0.0,0.0,9E9,9E9,9E9]],printSpeed_0,zDef_0,bendedTool,\WObj:=ext_axis;
MoveL [[82.712,-62.032,29.210],[0.000000,0.000998,1.000000,0.000009],[-1,-1,0,1],[9E9,0.0,0.0,9E9,9E9,9E9]],printSpeed_0,zDef_0,bendedTool,\WObj:=ext_axis;
MoveL [[86.287,-57.321,29.210],[0.000000,0.000998,1.000000,0.000009],[-1,-1,0,1],[9E9,0.0,0.0,9E9,9E9,9E9]],printSpeed_0,zDef_0,bendedTool,\WObj:=ext_axis;
MoveL [[30.303,-19.022,29.210],[0.000000,0.000998,1.000000,0.000009],[-1,-1,0,1],[9E9,0.0,0.0,9E9,9E9,9E9]],printSpeed_0,zDef_0,bendedTool,\WObj:=ext_axis;
MoveL [[31.319,-17.247,29.210],[0.000000,0.000998,1.000000,0.000009],[-1,-1,0,1],[9E9,0.0,0.0,9E9,9E9,9E9]],printSpeed_0,zDef_0,bendedTool,\WObj:=ext_axis;
MoveL [[89.241,-52.199,29.210],[0.000000,0.000998,1.000000,0.000009],[-1,-1,0,1],[9E9,0.0,0.0,9E9,9E9,9E9]],printSpeed_0,zDef_0,bendedTool,\WObj:=ext_axis;
MoveL [[92.186,-47.070,29.210],[0.000000,0.000998,1.000000,0.000009],[-1,-1,0,1],[9E9,0.0,0.0,9E9,9E9,9E9]],printSpeed_0,zDef_0,bendedTool,\WObj:=ext_axis;
MoveL [[32.302,-15.455,29.210],[0.000000,0.000998,1.000000,0.000009],[-1,-1,0,1],[9E9,0.0,0.0,9E9,9E9,9E9]],printSpeed_0,zDef_0,bendedTool,\WObj:=ext_axis;
MoveL [[33.078,-13.562,29.210],[0.000000,0.000998,1.000000,0.000009],[-1,-1,0,1],[9E9,0.0,0.0,9E9,9E9,9E9]],printSpeed_0,zDef_0,bendedTool,\WObj:=ext_axis;
MoveL [[94.650,-41.706,29.210],[0.000000,0.000998,1.000000,0.000009],[-1,-1,0,1],[9E9,0.0,0.0,9E9,9E9,9E9]],printSpeed_0,zDef_0,bendedTool,\WObj:=ext_axis;
MoveL [[96.898,-36.236,29.210],[0.000000,0.000998,1.000000,0.000009],[-1,-1,0,1],[9E9,0.0,0.0,9E9,9E9,9E9]],printSpeed_0,zDef_0,bendedTool,\WObj:=ext_axis;
MoveL [[33.852,-11.669,29.210],[0.000000,0.000998,1.000000,0.000009],[-1,-1,0,1],[9E9,0.0,0.0,9E9,9E9,9E9]],printSpeed_0,zDef_0,bendedTool,\WObj:=ext_axis;
MoveL [[34.411,-9.703,29.210],[0.000000,0.000998,1.000000,0.000009],[-1,-1,0,1],[9E9,0.0,0.0,9E9,9E9,9E9]],printSpeed_0,zDef_0,bendedTool,\WObj:=ext_axis;
MoveL [[98.850,-30.666,29.210],[0.000000,0.000998,1.000000,0.000009],[-1,-1,0,1],[9E9,0.0,0.0,9E9,9E9,9E9]],printSpeed_0,zDef_0,bendedTool,\WObj:=ext_axis;
MoveL [[100.352,-24.946,29.210],[0.000000,0.000998,1.000000,0.000009],[-1,-1,0,1],[9E9,0.0,0.0,9E9,9E9,9E9]],printSpeed_0,zDef_0,bendedTool,\WObj:=ext_axis;
MoveL [[34.938,-7.726,29.210],[0.000000,0.000998,1.000000,0.000009],[-1,-1,0,1],[9E9,0.0,0.0,9E9,9E9,9E9]],printSpeed_0,zDef_0,bendedTool,\WObj:=ext_axis;
MoveL [[35.314,-5.720,29.210],[0.000000,0.000998,1.000000,0.000009],[-1,-1,0,1],[9E9,0.0,0.0,9E9,9E9,9E9]],printSpeed_0,zDef_0,bendedTool,\WObj:=ext_axis;
MoveL [[101.762,-19.207,29.210],[0.000000,0.000998,1.000000,0.000009],[-1,-1,0,1],[9E9,0.0,0.0,9E9,9E9,9E9]],printSpeed_0,zDef_0,bendedTool,\WObj:=ext_axis;
MoveL [[102.517,-13.342,29.210],[0.000000,0.000998,1.000000,0.000009],[-1,-1,0,1],[9E9,0.0,0.0,9E9,9E9,9E9]],printSpeed_0,zDef_0,bendedTool,\WObj:=ext_axis;
MoveL [[35.573,-3.691,29.210],[0.000000,0.000998,1.000000,0.000009],[-1,-1,0,1],[9E9,0.0,0.0,9E9,9E9,9E9]],printSpeed_0,zDef_0,bendedTool,\WObj:=ext_axis;
MoveL [[35.757,-1.657,29.210],[0.000000,0.000998,1.000000,0.000009],[0,-1,0,1],[9E9,0.0,0.0,9E9,9E9,9E9]],printSpeed_0,zDef_0,bendedTool,\WObj:=ext_axis;
MoveL [[103.276,-7.476,29.210],[0.000000,0.000998,1.000000,0.000009],[-1,-1,0,1],[9E9,0.0,0.0,9E9,9E9,9E9]],printSpeed_0,zDef_0,bendedTool,\WObj:=ext_axis;
MoveL [[103.402,-1.571,29.210],[0.000000,0.000998,1.000000,0.000009],[0,-1,0,1],[9E9,0.0,0.0,9E9,9E9,9E9]],printSpeed_0,zDef_0,bendedTool,\WObj:=ext_axis;
MoveL [[35.753,0.389,29.210],[0.000000,0.000998,1.000000,0.000009],[0,-1,0,1],[9E9,0.0,0.0,9E9,9E9,9E9]],printSpeed_0,zDef_0,bendedTool,\WObj:=ext_axis;
MoveL [[35.749,2.434,29.210],[0.000000,0.000998,1.000000,0.000009],[0,0,0,1],[9E9,0.0,0.0,9E9,9E9,9E9]],printSpeed_0,zDef_0,bendedTool,\WObj:=ext_axis;
MoveL [[103.386,4.343,29.210],[0.000000,0.000998,1.000000,0.000009],[0,0,0,1],[9E9,0.0,0.0,9E9,9E9,9E9]],printSpeed_0,zDef_0,bendedTool,\WObj:=ext_axis;
MoveL [[102.955,10.227,29.210],[0.000000,0.000998,1.000000,0.000009],[0,0,0,1],[9E9,0.0,0.0,9E9,9E9,9E9]],printSpeed_0,zDef_0,bendedTool,\WObj:=ext_axis;
MoveL [[35.480,4.462,29.210],[0.000000,0.000998,1.000000,0.000009],[0,0,0,1],[9E9,0.0,0.0,9E9,9E9,9E9]],printSpeed_0,zDef_0,bendedTool,\WObj:=ext_axis;
MoveL [[35.209,6.490,29.210],[0.000000,0.000998,1.000000,0.000009],[0,0,0,1],[9E9,0.0,0.0,9E9,9E9,9E9]],printSpeed_0,zDef_0,bendedTool,\WObj:=ext_axis;
MoveL [[102.148,16.086,29.210],[0.000000,0.000998,1.000000,0.000009],[0,0,0,1],[9E9,0.0,0.0,9E9,9E9,9E9]],printSpeed_0,zDef_0,bendedTool,\WObj:=ext_axis;
MoveL [[101.175,21.911,29.210],[0.000000,0.000998,1.000000,0.000009],[0,0,0,1],[9E9,0.0,0.0,9E9,9E9,9E9]],printSpeed_0,zDef_0,bendedTool,\WObj:=ext_axis;
MoveL [[34.754,8.480,29.210],[0.000000,0.000998,1.000000,0.000009],[0,0,0,1],[9E9,0.0,0.0,9E9,9E9,9E9]],printSpeed_0,zDef_0,bendedTool,\WObj:=ext_axis;
MoveL [[34.220,10.455,29.210],[0.000000,0.000998,1.000000,0.000009],[0,0,0,1],[9E9,0.0,0.0,9E9,9E9,9E9]],printSpeed_0,zDef_0,bendedTool,\WObj:=ext_axis;
MoveL [[99.630,27.620,29.210],[0.000000,0.000998,1.000000,0.000009],[0,0,0,1],[9E9,0.0,0.0,9E9,9E9,9E9]],printSpeed_0,zDef_0,bendedTool,\WObj:=ext_axis;
MoveL [[98.082,33.328,29.210],[0.000000,0.000998,1.000000,0.000009],[0,0,0,1],[9E9,0.0,0.0,9E9,9E9,9E9]],printSpeed_0,zDef_0,bendedTool,\WObj:=ext_axis;
MoveL [[33.584,12.395,29.210],[0.000000,0.000998,1.000000,0.000009],[0,0,0,1],[9E9,0.0,0.0,9E9,9E9,9E9]],printSpeed_0,zDef_0,bendedTool,\WObj:=ext_axis;
MoveL [[32.796,14.283,29.210],[0.000000,0.000998,1.000000,0.000009],[0,0,0,1],[9E9,0.0,0.0,9E9,9E9,9E9]],printSpeed_0,zDef_0,bendedTool,\WObj:=ext_axis;
MoveL [[95.853,38.803,29.210],[0.000000,0.000998,1.000000,0.000009],[0,0,0,1],[9E9,0.0,0.0,9E9,9E9,9E9]],printSpeed_0,zDef_0,bendedTool,\WObj:=ext_axis;
MoveL [[93.578,44.262,29.210],[0.000000,0.000998,1.000000,0.000009],[0,0,0,1],[9E9,0.0,0.0,9E9,9E9,9E9]],printSpeed_0,zDef_0,bendedTool,\WObj:=ext_axis;
MoveL [[31.982,16.158,29.210],[0.000000,0.000998,1.000000,0.000009],[0,0,0,1],[9E9,0.0,0.0,9E9,9E9,9E9]],printSpeed_0,zDef_0,bendedTool,\WObj:=ext_axis;
MoveL [[30.954,17.927,29.210],[0.000000,0.000998,1.000000,0.000009],[0,0,0,1],[9E9,0.0,0.0,9E9,9E9,9E9]],printSpeed_0,zDef_0,bendedTool,\WObj:=ext_axis;
MoveL [[90.838,49.489,29.210],[0.000000,0.000998,1.000000,0.000009],[0,0,0,1],[9E9,0.0,0.0,9E9,9E9,9E9]],printSpeed_0,zDef_0,bendedTool,\WObj:=ext_axis;
MoveL [[87.848,54.591,29.210],[0.000000,0.000998,1.000000,0.000009],[0,0,0,1],[9E9,0.0,0.0,9E9,9E9,9E9]],printSpeed_0,zDef_0,bendedTool,\WObj:=ext_axis;
MoveL [[29.926,19.695,29.210],[0.000000,0.000998,1.000000,0.000009],[0,0,0,1],[9E9,0.0,0.0,9E9,9E9,9E9]],printSpeed_0,zDef_0,bendedTool,\WObj:=ext_axis;
MoveL [[28.717,21.342,29.210],[0.000000,0.000998,1.000000,0.000009],[0,0,0,1],[9E9,0.0,0.0,9E9,9E9,9E9]],printSpeed_0,zDef_0,bendedTool,\WObj:=ext_axis;
MoveL [[84.640,59.547,29.210],[0.000000,0.000998,1.000000,0.000009],[0,0,0,1],[9E9,0.0,0.0,9E9,9E9,9E9]],printSpeed_0,zDef_0,bendedTool,\WObj:=ext_axis;
MoveL [[81.028,64.230,29.210],[0.000000,0.000998,1.000000,0.000009],[0,0,0,1],[9E9,0.0,0.0,9E9,9E9,9E9]],printSpeed_0,zDef_0,bendedTool,\WObj:=ext_axis;
MoveL [[27.469,22.963,29.210],[0.000000,0.000998,1.000000,0.000009],[0,0,0,1],[9E9,0.0,0.0,9E9,9E9,9E9]],printSpeed_0,zDef_0,bendedTool,\WObj:=ext_axis;
MoveL [[26.115,24.491,29.210],[0.000000,0.000998,1.000000,0.000009],[0,0,0,1],[9E9,0.0,0.0,9E9,9E9,9E9]],printSpeed_0,zDef_0,bendedTool,\WObj:=ext_axis;
MoveL [[77.378,68.879,29.210],[0.000000,0.000998,1.000000,0.000009],[0,0,0,1],[9E9,0.0,0.0,9E9,9E9,9E9]],printSpeed_0,zDef_0,bendedTool,\WObj:=ext_axis;
MoveL [[73.187,73.052,29.210],[0.000000,0.000998,1.000000,0.000009],[0,0,0,1],[9E9,0.0,0.0,9E9,9E9,9E9]],printSpeed_0,zDef_0,bendedTool,\WObj:=ext_axis;
MoveL [[24.663,25.932,29.210],[0.000000,0.000998,1.000000,0.000009],[0,0,0,1],[9E9,0.0,0.0,9E9,9E9,9E9]],printSpeed_0,zDef_0,bendedTool,\WObj:=ext_axis;
MoveL [[23.170,27.326,29.210],[0.000000,0.000998,1.000000,0.000009],[0,0,0,1],[9E9,0.0,0.0,9E9,9E9,9E9]],printSpeed_0,zDef_0,bendedTool,\WObj:=ext_axis;
MoveL [[68.996,77.225,29.210],[0.000000,0.000998,1.000000,0.000009],[0,0,0,1],[9E9,0.0,0.0,9E9,9E9,9E9]],printSpeed_0,zDef_0,bendedTool,\WObj:=ext_axis;
MoveL [[64.400,80.932,29.210],[0.000000,0.000998,1.000000,0.000009],[0,0,0,1],[9E9,0.0,0.0,9E9,9E9,9E9]],printSpeed_0,zDef_0,bendedTool,\WObj:=ext_axis;
MoveL [[21.544,28.567,29.210],[0.000000,0.000998,1.000000,0.000009],[0,0,0,1],[9E9,0.0,0.0,9E9,9E9,9E9]],printSpeed_0,zDef_0,bendedTool,\WObj:=ext_axis;
MoveL [[19.919,29.809,29.210],[0.000000,0.000998,1.000000,0.000009],[0,0,0,1],[9E9,0.0,0.0,9E9,9E9,9E9]],printSpeed_0,zDef_0,bendedTool,\WObj:=ext_axis;
MoveL [[59.685,84.502,29.210],[0.000000,0.000998,1.000000,0.000009],[0,0,0,1],[9E9,0.0,0.0,9E9,9E9,9E9]],printSpeed_0,zDef_0,bendedTool,\WObj:=ext_axis;
MoveL [[54.768,87.768,29.210],[0.000000,0.000998,1.000000,0.000009],[0,0,0,1],[9E9,0.0,0.0,9E9,9E9,9E9]],printSpeed_0,zDef_0,bendedTool,\WObj:=ext_axis;
MoveL [[18.154,30.841,29.210],[0.000000,0.000998,1.000000,0.000009],[0,0,0,1],[9E9,0.0,0.0,9E9,9E9,9E9]],printSpeed_0,zDef_0,bendedTool,\WObj:=ext_axis;
MoveL [[16.380,31.860,29.210],[0.000000,0.000998,1.000000,0.000009],[0,0,0,1],[9E9,0.0,0.0,9E9,9E9,9E9]],printSpeed_0,zDef_0,bendedTool,\WObj:=ext_axis;
MoveL [[49.639,90.712,29.210],[0.000000,0.000998,1.000000,0.000009],[0,0,0,1],[9E9,0.0,0.0,9E9,9E9,9E9]],printSpeed_0,zDef_0,bendedTool,\WObj:=ext_axis;
MoveL [[44.446,93.525,29.210],[0.000000,0.000998,1.000000,0.000009],[0,0,0,1],[9E9,0.0,0.0,9E9,9E9,9E9]],printSpeed_0,zDef_0,bendedTool,\WObj:=ext_axis;
MoveL [[14.529,32.723,29.210],[0.000000,0.000998,1.000000,0.000009],[0,0,0,1],[9E9,0.0,0.0,9E9,9E9,9E9]],printSpeed_0,zDef_0,bendedTool,\WObj:=ext_axis;
MoveL [[12.637,33.501,29.210],[0.000000,0.000998,1.000000,0.000009],[0,0,0,1],[9E9,0.0,0.0,9E9,9E9,9E9]],printSpeed_0,zDef_0,bendedTool,\WObj:=ext_axis;
MoveL [[38.977,95.778,29.210],[0.000000,0.000998,1.000000,0.000009],[0,0,0,1],[9E9,0.0,0.0,9E9,9E9,9E9]],printSpeed_0,zDef_0,bendedTool,\WObj:=ext_axis;
MoveL [[33.509,98.030,29.210],[0.000000,0.000998,1.000000,0.000009],[0,0,0,1],[9E9,0.0,0.0,9E9,9E9,9E9]],printSpeed_0,zDef_0,bendedTool,\WObj:=ext_axis;
MoveL [[10.715,34.190,29.210],[0.000000,0.000998,1.000000,0.000009],[0,0,0,1],[9E9,0.0,0.0,9E9,9E9,9E9]],printSpeed_0,zDef_0,bendedTool,\WObj:=ext_axis;
MoveL [[8.739,34.717,29.210],[0.000000,0.000998,1.000000,0.000009],[0,0,0,1],[9E9,0.0,0.0,9E9,9E9,9E9]],printSpeed_0,zDef_0,bendedTool,\WObj:=ext_axis;
MoveL [[27.811,99.596,29.210],[0.000000,0.000998,1.000000,0.000009],[0,0,0,1],[9E9,0.0,0.0,9E9,9E9,9E9]],printSpeed_0,zDef_0,bendedTool,\WObj:=ext_axis;
MoveL [[22.089,101.093,29.210],[0.000000,0.000998,1.000000,0.000009],[0,0,0,1],[9E9,0.0,0.0,9E9,9E9,9E9]],printSpeed_0,zDef_0,bendedTool,\WObj:=ext_axis;
MoveL [[6.758,35.225,29.210],[0.000000,0.000998,1.000000,0.000009],[0,0,0,1],[9E9,0.0,0.0,9E9,9E9,9E9]],printSpeed_0,zDef_0,bendedTool,\WObj:=ext_axis;
MoveL [[4.727,35.472,29.210],[0.000000,0.000998,1.000000,0.000009],[0,0,0,1],[9E9,0.0,0.0,9E9,9E9,9E9]],printSpeed_0,zDef_0,bendedTool,\WObj:=ext_axis;
MoveL [[16.281,102.143,29.210],[0.000000,0.000998,1.000000,0.000009],[0,0,0,1],[9E9,0.0,0.0,9E9,9E9,9E9]],printSpeed_0,zDef_0,bendedTool,\WObj:=ext_axis;
MoveL [[10.415,102.898,29.210],[0.000000,0.000998,1.000000,0.000009],[0,0,0,1],[9E9,0.0,0.0,9E9,9E9,9E9]],printSpeed_0,zDef_0,bendedTool,\WObj:=ext_axis;
MoveL [[2.698,35.728,29.210],[0.000000,0.000998,1.000000,0.000009],[0,0,0,1],[9E9,0.0,0.0,9E9,9E9,9E9]],printSpeed_0,zDef_0,bendedTool,\WObj:=ext_axis;
MoveL [[0.656,35.788,29.210],[0.000000,0.000998,1.000000,0.000009],[0,0,0,1],[9E9,0.0,0.0,9E9,9E9,9E9]],printSpeed_0,zDef_0,bendedTool,\WObj:=ext_axis;
MoveL [[4.534,103.411,29.210],[0.000000,0.000998,1.000000,0.000009],[0,0,0,1],[9E9,0.0,0.0,9E9,9E9,9E9]],printSpeed_0,zDef_0,bendedTool,\WObj:=ext_axis;
MoveL [[-1.380,103.394,29.210],[0.000000,0.000998,1.000000,0.000009],[0,0,0,1],[9E9,0.0,0.0,9E9,9E9,9E9]],printSpeed_0,zDef_0,bendedTool,\WObj:=ext_axis;
MoveL [[-1.389,35.782,29.210],[0.000000,0.000998,1.000000,0.000009],[0,0,0,1],[9E9,0.0,0.0,9E9,9E9,9E9]],printSpeed_0,zDef_0,bendedTool,\WObj:=ext_axis;
MoveL [[-3.426,35.651,29.210],[0.000000,0.000998,1.000000,0.000009],[0,0,0,1],[9E9,0.0,0.0,9E9,9E9,9E9]],printSpeed_0,zDef_0,bendedTool,\WObj:=ext_axis;
MoveL [[-7.293,103.354,29.210],[0.000000,0.000998,1.000000,0.000009],[0,0,0,1],[9E9,0.0,0.0,9E9,9E9,9E9]],printSpeed_0,zDef_0,bendedTool,\WObj:=ext_axis;
MoveL [[-13.151,102.543,29.210],[0.000000,0.000998,1.000000,0.000009],[0,0,0,1],[9E9,0.0,0.0,9E9,9E9,9E9]],printSpeed_0,zDef_0,bendedTool,\WObj:=ext_axis;
MoveL [[-5.454,35.377,29.210],[0.000000,0.000998,1.000000,0.000009],[0,0,0,1],[9E9,0.0,0.0,9E9,9E9,9E9]],printSpeed_0,zDef_0,bendedTool,\WObj:=ext_axis;
MoveL [[-7.472,35.059,29.210],[0.000000,0.000998,1.000000,0.000009],[0,0,0,1],[9E9,0.0,0.0,9E9,9E9,9E9]],printSpeed_0,zDef_0,bendedTool,\WObj:=ext_axis;
MoveL [[-19.011,101.745,29.210],[0.000000,0.000998,1.000000,0.000009],[0,0,0,1],[9E9,0.0,0.0,9E9,9E9,9E9]],printSpeed_0,zDef_0,bendedTool,\WObj:=ext_axis;
MoveL [[-24.762,100.405,29.210],[0.000000,0.000998,1.000000,0.000009],[0,0,0,1],[9E9,0.0,0.0,9E9,9E9,9E9]],printSpeed_0,zDef_0,bendedTool,\WObj:=ext_axis;
MoveL [[-9.446,34.522,29.210],[0.000000,0.000998,1.000000,0.000009],[0,0,0,1],[9E9,0.0,0.0,9E9,9E9,9E9]],printSpeed_0,zDef_0,bendedTool,\WObj:=ext_axis;
MoveL [[-11.419,33.983,29.210],[0.000000,0.000998,1.000000,0.000009],[0,0,0,1],[9E9,0.0,0.0,9E9,9E9,9E9]],printSpeed_0,zDef_0,bendedTool,\WObj:=ext_axis;
MoveL [[-30.470,98.856,29.210],[0.000000,0.000998,1.000000,0.000009],[0,0,0,1],[9E9,0.0,0.0,9E9,9E9,9E9]],printSpeed_0,zDef_0,bendedTool,\WObj:=ext_axis;
MoveL [[-36.069,96.990,29.210],[0.000000,0.000998,1.000000,0.000009],[0,0,0,1],[9E9,0.0,0.0,9E9,9E9,9E9]],printSpeed_0,zDef_0,bendedTool,\WObj:=ext_axis;
MoveL [[-13.317,33.225,29.210],[0.000000,0.000998,1.000000,0.000009],[0,0,0,1],[9E9,0.0,0.0,9E9,9E9,9E9]],printSpeed_0,zDef_0,bendedTool,\WObj:=ext_axis;
MoveL [[-15.204,32.435,29.210],[0.000000,0.000998,1.000000,0.000009],[0,0,0,1],[9E9,0.0,0.0,9E9,9E9,9E9]],printSpeed_0,zDef_0,bendedTool,\WObj:=ext_axis;
MoveL [[-41.525,94.709,29.210],[0.000000,0.000998,1.000000,0.000009],[0,0,0,1],[9E9,0.0,0.0,9E9,9E9,9E9]],printSpeed_0,zDef_0,bendedTool,\WObj:=ext_axis;
MoveL [[-46.929,92.321,29.210],[0.000000,0.000998,1.000000,0.000009],[0,0,0,1],[9E9,0.0,0.0,9E9,9E9,9E9]],printSpeed_0,zDef_0,bendedTool,\WObj:=ext_axis;
MoveL [[-17.019,31.500,29.210],[0.000000,0.000998,1.000000,0.000009],[0,0,0,1],[9E9,0.0,0.0,9E9,9E9,9E9]],printSpeed_0,zDef_0,bendedTool,\WObj:=ext_axis;
MoveL [[-18.783,30.464,29.210],[0.000000,0.000998,1.000000,0.000009],[0,0,0,1],[9E9,0.0,0.0,9E9,9E9,9E9]],printSpeed_0,zDef_0,bendedTool,\WObj:=ext_axis;
MoveL [[-52.031,89.331,29.210],[0.000000,0.000998,1.000000,0.000009],[0,0,0,1],[9E9,0.0,0.0,9E9,9E9,9E9]],printSpeed_0,zDef_0,bendedTool,\WObj:=ext_axis;
MoveL [[-57.140,86.352,29.210],[0.000000,0.000998,1.000000,0.000009],[0,0,0,1],[9E9,0.0,0.0,9E9,9E9,9E9]],printSpeed_0,zDef_0,bendedTool,\WObj:=ext_axis;
MoveL [[-20.504,29.364,29.210],[0.000000,0.000998,1.000000,0.000009],[0,0,0,1],[9E9,0.0,0.0,9E9,9E9,9E9]],printSpeed_0,zDef_0,bendedTool,\WObj:=ext_axis;
MoveL [[-22.122,28.112,29.210],[0.000000,0.000998,1.000000,0.000009],[0,0,0,1],[9E9,0.0,0.0,9E9,9E9,9E9]],printSpeed_0,zDef_0,bendedTool,\WObj:=ext_axis;
MoveL [[-61.883,82.829,29.210],[0.000000,0.000998,1.000000,0.000009],[0,0,0,1],[9E9,0.0,0.0,9E9,9E9,9E9]],printSpeed_0,zDef_0,bendedTool,\WObj:=ext_axis;
MoveL [[-66.565,79.216,29.210],[0.000000,0.000998,1.000000,0.000009],[0,0,0,1],[9E9,0.0,0.0,9E9,9E9,9E9]],printSpeed_0,zDef_0,bendedTool,\WObj:=ext_axis;
MoveL [[-23.737,26.857,29.210],[0.000000,0.000998,1.000000,0.000009],[0,0,0,1],[9E9,0.0,0.0,9E9,9E9,9E9]],printSpeed_0,zDef_0,bendedTool,\WObj:=ext_axis;
MoveL [[-25.177,25.405,29.210],[0.000000,0.000998,1.000000,0.000009],[0,0,0,1],[9E9,0.0,0.0,9E9,9E9,9E9]],printSpeed_0,zDef_0,bendedTool,\WObj:=ext_axis;
MoveL [[-70.958,75.275,29.210],[0.000000,0.000998,1.000000,0.000009],[0,0,0,1],[9E9,0.0,0.0,9E9,9E9,9E9]],printSpeed_0,zDef_0,bendedTool,\WObj:=ext_axis;
MoveL [[-75.124,71.078,29.210],[0.000000,0.000998,1.000000,0.000009],[0,0,0,1],[9E9,0.0,0.0,9E9,9E9,9E9]],printSpeed_0,zDef_0,bendedTool,\WObj:=ext_axis;
MoveL [[-26.618,23.953,29.210],[0.000000,0.000998,1.000000,0.000009],[0,0,0,1],[9E9,0.0,0.0,9E9,9E9,9E9]],printSpeed_0,zDef_0,bendedTool,\WObj:=ext_axis;
MoveL [[-27.912,22.373,29.210],[0.000000,0.000998,1.000000,0.000009],[0,0,0,1],[9E9,0.0,0.0,9E9,9E9,9E9]],printSpeed_0,zDef_0,bendedTool,\WObj:=ext_axis;
MoveL [[-79.135,66.746,29.210],[0.000000,0.000998,1.000000,0.000009],[0,0,0,1],[9E9,0.0,0.0,9E9,9E9,9E9]],printSpeed_0,zDef_0,bendedTool,\WObj:=ext_axis;
MoveL [[-82.716,62.039,29.210],[0.000000,0.000998,1.000000,0.000009],[0,0,0,1],[9E9,0.0,0.0,9E9,9E9,9E9]],printSpeed_0,zDef_0,bendedTool,\WObj:=ext_axis;
MoveL [[-29.155,20.748,29.210],[0.000000,0.000998,1.000000,0.000009],[0,0,0,1],[9E9,0.0,0.0,9E9,9E9,9E9]],printSpeed_0,zDef_0,bendedTool,\WObj:=ext_axis;
MoveL [[-30.302,19.059,29.210],[0.000000,0.000998,1.000000,0.000009],[0,0,0,1],[9E9,0.0,0.0,9E9,9E9,9E9]],printSpeed_0,zDef_0,bendedTool,\WObj:=ext_axis;
MoveL [[-86.284,57.323,29.210],[0.000000,0.000998,1.000000,0.000009],[0,0,0,1],[9E9,0.0,0.0,9E9,9E9,9E9]],printSpeed_0,zDef_0,bendedTool,\WObj:=ext_axis;
MoveL [[-89.243,52.203,29.210],[0.000000,0.000998,1.000000,0.000009],[0,0,0,1],[9E9,0.0,0.0,9E9,9E9,9E9]],printSpeed_0,zDef_0,bendedTool,\WObj:=ext_axis;
MoveL [[-31.317,17.284,29.210],[0.000000,0.000998,1.000000,0.000009],[0,0,0,1],[9E9,0.0,0.0,9E9,9E9,9E9]],printSpeed_0,zDef_0,bendedTool,\WObj:=ext_axis;
MoveL [[-32.302,15.493,29.210],[0.000000,0.000998,1.000000,0.000009],[0,0,0,1],[9E9,0.0,0.0,9E9,9E9,9E9]],printSpeed_0,zDef_0,bendedTool,\WObj:=ext_axis;
MoveL [[-92.184,47.072,29.210],[0.000000,0.000998,1.000000,0.000009],[0,0,0,1],[9E9,0.0,0.0,9E9,9E9,9E9]],printSpeed_0,zDef_0,bendedTool,\WObj:=ext_axis;
MoveL [[-94.650,41.708,29.210],[0.000000,0.000998,1.000000,0.000009],[0,0,0,1],[9E9,0.0,0.0,9E9,9E9,9E9]],printSpeed_0,zDef_0,bendedTool,\WObj:=ext_axis;
MoveL [[-33.081,13.601,29.210],[0.000000,0.000998,1.000000,0.000009],[0,0,0,1],[9E9,0.0,0.0,9E9,9E9,9E9]],printSpeed_0,zDef_0,bendedTool,\WObj:=ext_axis;
MoveL [[-33.857,11.708,29.210],[0.000000,0.000998,1.000000,0.000009],[0,0,0,1],[9E9,0.0,0.0,9E9,9E9,9E9]],printSpeed_0,zDef_0,bendedTool,\WObj:=ext_axis;
MoveL [[-96.893,36.236,29.210],[0.000000,0.000998,1.000000,0.000009],[0,0,0,1],[9E9,0.0,0.0,9E9,9E9,9E9]],printSpeed_0,zDef_0,bendedTool,\WObj:=ext_axis;
MoveL [[-98.836,30.664,29.210],[0.000000,0.000998,1.000000,0.000009],[0,0,0,1],[9E9,0.0,0.0,9E9,9E9,9E9]],printSpeed_0,zDef_0,bendedTool,\WObj:=ext_axis;
MoveL [[-34.421,9.745,29.210],[0.000000,0.000998,1.000000,0.000009],[0,0,0,1],[9E9,0.0,0.0,9E9,9E9,9E9]],printSpeed_0,zDef_0,bendedTool,\WObj:=ext_axis;
MoveL [[-34.942,7.766,29.210],[0.000000,0.000998,1.000000,0.000009],[0,0,0,1],[9E9,0.0,0.0,9E9,9E9,9E9]],printSpeed_0,zDef_0,bendedTool,\WObj:=ext_axis;
MoveL [[-100.335,24.943,29.210],[0.000000,0.000998,1.000000,0.000009],[0,0,0,1],[9E9,0.0,0.0,9E9,9E9,9E9]],printSpeed_0,zDef_0,bendedTool,\WObj:=ext_axis;
MoveL [[-101.762,19.208,29.210],[0.000000,0.000998,1.000000,0.000009],[0,0,0,1],[9E9,0.0,0.0,9E9,9E9,9E9]],printSpeed_0,zDef_0,bendedTool,\WObj:=ext_axis;
MoveL [[-35.323,5.761,29.210],[0.000000,0.000998,1.000000,0.000009],[0,0,0,1],[9E9,0.0,0.0,9E9,9E9,9E9]],printSpeed_0,zDef_0,bendedTool,\WObj:=ext_axis;
MoveL [[-35.581,3.732,29.210],[0.000000,0.000998,1.000000,0.000009],[0,0,0,1],[9E9,0.0,0.0,9E9,9E9,9E9]],printSpeed_0,zDef_0,bendedTool,\WObj:=ext_axis;
MoveL [[-102.522,13.343,29.210],[0.000000,0.000998,1.000000,0.000009],[0,0,0,1],[9E9,0.0,0.0,9E9,9E9,9E9]],printSpeed_0,zDef_0,bendedTool,\WObj:=ext_axis;
MoveL [[-103.276,7.477,29.210],[0.000000,0.000998,1.000000,0.000009],[0,0,0,1],[9E9,0.0,0.0,9E9,9E9,9E9]],printSpeed_0,zDef_0,bendedTool,\WObj:=ext_axis;
MoveL [[-35.773,1.698,29.210],[0.000000,0.000998,1.000000,0.000009],[0,0,0,1],[9E9,0.0,0.0,9E9,9E9,9E9]],printSpeed_0,zDef_0,bendedTool,\WObj:=ext_axis;
MoveL [[-35.764,-0.348,29.210],[0.000000,0.000998,1.000000,0.000009],[0,-1,0,1],[9E9,0.0,0.0,9E9,9E9,9E9]],printSpeed_0,zDef_0,bendedTool,\WObj:=ext_axis;
MoveL [[-103.404,1.572,29.210],[0.000000,0.000998,1.000000,0.000009],[0,0,0,1],[9E9,0.0,0.0,9E9,9E9,9E9]],printSpeed_0,zDef_0,bendedTool,\WObj:=ext_axis;
MoveL [[-103.382,-4.342,29.210],[0.000000,0.000998,1.000000,0.000009],[-1,-1,0,1],[9E9,0.0,0.0,9E9,9E9,9E9]],printSpeed_0,zDef_0,bendedTool,\WObj:=ext_axis;
MoveL [[-35.753,-2.393,29.210],[0.000000,0.000998,1.000000,0.000009],[-1,-1,0,1],[9E9,0.0,0.0,9E9,9E9,9E9]],printSpeed_0,zDef_0,bendedTool,\WObj:=ext_axis;
MoveL [[-35.482,-4.420,29.210],[0.000000,0.000998,1.000000,0.000009],[-1,-1,0,1],[9E9,0.0,0.0,9E9,9E9,9E9]],printSpeed_0,zDef_0,bendedTool,\WObj:=ext_axis;
MoveL [[-102.946,-10.227,29.210],[0.000000,0.000998,1.000000,0.000009],[-1,-1,0,1],[9E9,0.0,0.0,9E9,9E9,9E9]],printSpeed_0,zDef_0,bendedTool,\WObj:=ext_axis;
MoveL [[-102.144,-16.086,29.210],[0.000000,0.000998,1.000000,0.000009],[-1,-1,0,1],[9E9,0.0,0.0,9E9,9E9,9E9]],printSpeed_0,zDef_0,bendedTool,\WObj:=ext_axis;
MoveL [[-35.202,-6.447,29.210],[0.000000,0.000998,1.000000,0.000009],[-1,-1,0,1],[9E9,0.0,0.0,9E9,9E9,9E9]],printSpeed_0,zDef_0,bendedTool,\WObj:=ext_axis;
MoveL [[-34.758,-8.440,29.210],[0.000000,0.000998,1.000000,0.000009],[-1,-1,0,1],[9E9,0.0,0.0,9E9,9E9,9E9]],printSpeed_0,zDef_0,bendedTool,\WObj:=ext_axis;
MoveL [[-101.174,-21.912,29.210],[0.000000,0.000998,1.000000,0.000009],[-1,-1,0,1],[9E9,0.0,0.0,9E9,9E9,9E9]],printSpeed_0,zDef_0,bendedTool,\WObj:=ext_axis;
MoveL [[-99.631,-27.621,29.210],[0.000000,0.000998,1.000000,0.000009],[-1,-1,0,1],[9E9,0.0,0.0,9E9,9E9,9E9]],printSpeed_0,zDef_0,bendedTool,\WObj:=ext_axis;
MoveL [[-34.225,-10.415,29.210],[0.000000,0.000998,1.000000,0.000009],[-1,-1,0,1],[9E9,0.0,0.0,9E9,9E9,9E9]],printSpeed_0,zDef_0,bendedTool,\WObj:=ext_axis;
MoveL [[-33.593,-12.356,29.210],[0.000000,0.000998,1.000000,0.000009],[-1,-1,0,1],[9E9,0.0,0.0,9E9,9E9,9E9]],printSpeed_0,zDef_0,bendedTool,\WObj:=ext_axis;
MoveL [[-98.083,-33.329,29.210],[0.000000,0.000998,1.000000,0.000009],[-1,-1,0,1],[9E9,0.0,0.0,9E9,9E9,9E9]],printSpeed_0,zDef_0,bendedTool,\WObj:=ext_axis;
MoveL [[-95.850,-38.802,29.210],[0.000000,0.000998,1.000000,0.000009],[-1,-1,0,1],[9E9,0.0,0.0,9E9,9E9,9E9]],printSpeed_0,zDef_0,bendedTool,\WObj:=ext_axis;
MoveL [[-32.803,-14.243,29.210],[0.000000,0.000998,1.000000,0.000009],[-1,-1,0,1],[9E9,0.0,0.0,9E9,9E9,9E9]],printSpeed_0,zDef_0,bendedTool,\WObj:=ext_axis;
MoveL [[-31.992,-16.120,29.210],[0.000000,0.000998,1.000000,0.000009],[-1,-1,0,1],[9E9,0.0,0.0,9E9,9E9,9E9]],printSpeed_0,zDef_0,bendedTool,\WObj:=ext_axis;
MoveL [[-93.567,-44.258,29.210],[0.000000,0.000998,1.000000,0.000009],[-1,-1,0,1],[9E9,0.0,0.0,9E9,9E9,9E9]],printSpeed_0,zDef_0,bendedTool,\WObj:=ext_axis;
MoveL [[-90.821,-49.483,29.210],[0.000000,0.000998,1.000000,0.000009],[-1,-1,0,1],[9E9,0.0,0.0,9E9,9E9,9E9]],printSpeed_0,zDef_0,bendedTool,\WObj:=ext_axis;
MoveL [[-30.961,-17.887,29.210],[0.000000,0.000998,1.000000,0.000009],[-1,-1,0,1],[9E9,0.0,0.0,9E9,9E9,9E9]],printSpeed_0,zDef_0,bendedTool,\WObj:=ext_axis;
MoveL [[-29.930,-19.654,29.210],[0.000000,0.000998,1.000000,0.000009],[-1,-1,0,1],[9E9,0.0,0.0,9E9,9E9,9E9]],printSpeed_0,zDef_0,bendedTool,\WObj:=ext_axis;
MoveL [[-87.841,-54.591,29.210],[0.000000,0.000998,1.000000,0.000009],[-1,-1,0,1],[9E9,0.0,0.0,9E9,9E9,9E9]],printSpeed_0,zDef_0,bendedTool,\WObj:=ext_axis;
MoveL [[-84.633,-59.545,29.210],[0.000000,0.000998,1.000000,0.000009],[-1,-1,0,1],[9E9,0.0,0.0,9E9,9E9,9E9]],printSpeed_0,zDef_0,bendedTool,\WObj:=ext_axis;
MoveL [[-28.723,-21.302,29.210],[0.000000,0.000998,1.000000,0.000009],[-1,-1,0,1],[9E9,0.0,0.0,9E9,9E9,9E9]],printSpeed_0,zDef_0,bendedTool,\WObj:=ext_axis;
MoveL [[-27.471,-22.919,29.210],[0.000000,0.000998,1.000000,0.000009],[-1,-1,0,1],[9E9,0.0,0.0,9E9,9E9,9E9]],printSpeed_0,zDef_0,bendedTool,\WObj:=ext_axis;
MoveL [[-81.020,-64.228,29.210],[0.000000,0.000998,1.000000,0.000009],[-1,-1,0,1],[9E9,0.0,0.0,9E9,9E9,9E9]],printSpeed_0,zIns_0,bendedTool,\WObj:=ext_axis;
stopContinuousWeld \preStopWeldDelay:=delayClosedStop_0 \postGasTime:=postGas_0;
MoveL [[-81.020,-64.228,79.210],[0.000000,0.000998,1.000000,0.000009],[-1,-1,0,1],[9E9,0.0,0.0,9E9,9E9,9E9]],moveSpeed_0,zDef_0,bendedTool,\WObj:=ext_axis;
MoveL [[20.122,-29.613,83.410],[0.000000,0.000998,1.000000,0.000009],[-1,-1,0,1],[9E9,0.0,0.0,9E9,9E9,9E9]],moveSpeed_0,zDef_0,bendedTool,\WObj:=ext_axis;
MoveL [[20.122,-29.613,33.410],[0.000000,0.000998,1.000000,0.000009],[-1,-1,0,1],[9E9,0.0,0.0,9E9,9E9,9E9]],moveSpeed_0,zIns_0,bendedTool,\WObj:=ext_axis;
waitInterpass useTempSensor0, wTime_5;
TPWrite "[8.1%] PRT0 LYR2 TRK0 (33.4mm)";
startContinuousWeld \preGasTime:=preGas_0 \postStartWeldDelay:=delayClosedStart_0 \weldingProgram:=27 \weldId:="0000-0002-0000-0002";
MoveL [[61.444,-83.144,33.410],[0.000000,0.000998,1.000000,0.000009],[-1,-1,0,1],[9E9,0.0,0.0,9E9,9E9,9E9]],printSpeed_0,zDef_0,bendedTool,\WObj:=ext_axis;
MoveL [[56.665,-86.610,33.410],[0.000000,0.000998,1.000000,0.000009],[-1,-1,0,1],[9E9,0.0,0.0,9E9,9E9,9E9]],printSpeed_0,zDef_0,bendedTool,\WObj:=ext_axis;
MoveL [[18.366,-30.658,33.410],[0.000000,0.000998,1.000000,0.000009],[-1,-1,0,1],[9E9,0.0,0.0,9E9,9E9,9E9]],printSpeed_0,zDef_0,bendedTool,\WObj:=ext_axis;
MoveL [[16.599,-31.688,33.410],[0.000000,0.000998,1.000000,0.000009],[-1,-1,0,1],[9E9,0.0,0.0,9E9,9E9,9E9]],printSpeed_0,zDef_0,bendedTool,\WObj:=ext_axis;
MoveL [[51.558,-89.591,33.410],[0.000000,0.000998,1.000000,0.000009],[-1,-1,0,1],[9E9,0.0,0.0,9E9,9E9,9E9]],printSpeed_0,zDef_0,bendedTool,\WObj:=ext_axis;
MoveL [[46.452,-92.572,33.410],[0.000000,0.000998,1.000000,0.000009],[-1,-1,0,1],[9E9,0.0,0.0,9E9,9E9,9E9]],printSpeed_0,zDef_0,bendedTool,\WObj:=ext_axis;
MoveL [[14.755,-32.561,33.410],[0.000000,0.000998,1.000000,0.000009],[-1,-1,0,1],[9E9,0.0,0.0,9E9,9E9,9E9]],printSpeed_0,zDef_0,bendedTool,\WObj:=ext_axis;
MoveL [[12.868,-33.349,33.410],[0.000000,0.000998,1.000000,0.000009],[-1,-1,0,1],[9E9,0.0,0.0,9E9,9E9,9E9]],printSpeed_0,zDef_0,bendedTool,\WObj:=ext_axis;
MoveL [[41.017,-94.891,33.410],[0.000000,0.000998,1.000000,0.000009],[-1,-1,0,1],[9E9,0.0,0.0,9E9,9E9,9E9]],printSpeed_0,zDef_0,bendedTool,\WObj:=ext_axis;
MoveL [[35.560,-97.168,33.410],[0.000000,0.000998,1.000000,0.000009],[-1,-1,0,1],[9E9,0.0,0.0,9E9,9E9,9E9]],printSpeed_0,zDef_0,bendedTool,\WObj:=ext_axis;
MoveL [[10.953,-34.053,33.410],[0.000000,0.000998,1.000000,0.000009],[-1,-1,0,1],[9E9,0.0,0.0,9E9,9E9,9E9]],printSpeed_0,zDef_0,bendedTool,\WObj:=ext_axis;
MoveL [[8.980,-34.591,33.410],[0.000000,0.000998,1.000000,0.000009],[-1,-1,0,1],[9E9,0.0,0.0,9E9,9E9,9E9]],printSpeed_0,zDef_0,bendedTool,\WObj:=ext_axis;
MoveL [[29.943,-98.976,33.410],[0.000000,0.000998,1.000000,0.000009],[-1,-1,0,1],[9E9,0.0,0.0,9E9,9E9,9E9]],printSpeed_0,zDef_0,bendedTool,\WObj:=ext_axis;
MoveL [[24.236,-100.522,33.410],[0.000000,0.000998,1.000000,0.000009],[-1,-1,0,1],[9E9,0.0,0.0,9E9,9E9,9E9]],printSpeed_0,zDef_0,bendedTool,\WObj:=ext_axis;
MoveL [[7.005,-35.112,33.410],[0.000000,0.000998,1.000000,0.000009],[-1,-1,0,1],[9E9,0.0,0.0,9E9,9E9,9E9]],printSpeed_0,zDef_0,bendedTool,\WObj:=ext_axis;
MoveL [[4.978,-35.386,33.410],[0.000000,0.000998,1.000000,0.000009],[-1,-1,0,1],[9E9,0.0,0.0,9E9,9E9,9E9]],printSpeed_0,zDef_0,bendedTool,\WObj:=ext_axis;
MoveL [[18.475,-101.804,33.410],[0.000000,0.000998,1.000000,0.000009],[-1,-1,0,1],[9E9,0.0,0.0,9E9,9E9,9E9]],printSpeed_0,zDef_0,bendedTool,\WObj:=ext_axis;
MoveL [[12.617,-102.607,33.410],[0.000000,0.000998,1.000000,0.000009],[-1,-1,0,1],[9E9,0.0,0.0,9E9,9E9,9E9]],printSpeed_0,zDef_0,bendedTool,\WObj:=ext_axis;
MoveL [[2.952,-35.660,33.410],[0.000000,0.000998,1.000000,0.000009],[-1,-1,0,1],[9E9,0.0,0.0,9E9,9E9,9E9]],printSpeed_0,zDef_0,bendedTool,\WObj:=ext_axis;
MoveL [[0.912,-35.729,33.410],[0.000000,0.000998,1.000000,0.000009],[-1,-1,0,1],[9E9,0.0,0.0,9E9,9E9,9E9]],printSpeed_0,zDef_0,bendedTool,\WObj:=ext_axis;
MoveL [[6.756,-103.359,33.410],[0.000000,0.000998,1.000000,0.000009],[-1,-1,0,1],[9E9,0.0,0.0,9E9,9E9,9E9]],printSpeed_0,zDef_0,bendedTool,\WObj:=ext_axis;
MoveL [[0.843,-103.377,33.410],[0.000000,0.000998,1.000000,0.000009],[-1,-1,0,1],[9E9,0.0,0.0,9E9,9E9,9E9]],printSpeed_0,zDef_0,bendedTool,\WObj:=ext_axis;
MoveL [[-1.133,-35.737,33.410],[0.000000,0.000998,1.000000,0.000009],[-1,-1,0,1],[9E9,0.0,0.0,9E9,9E9,9E9]],printSpeed_0,zDef_0,bendedTool,\WObj:=ext_axis;
MoveL [[-3.170,-35.618,33.410],[0.000000,0.000998,1.000000,0.000009],[-1,-1,0,1],[9E9,0.0,0.0,9E9,9E9,9E9]],printSpeed_0,zDef_0,bendedTool,\WObj:=ext_axis;
MoveL [[-5.069,-103.394,33.410],[0.000000,0.000998,1.000000,0.000009],[-1,-1,0,1],[9E9,0.0,0.0,9E9,9E9,9E9]],printSpeed_0,zDef_0,bendedTool,\WObj:=ext_axis;
MoveL [[-10.944,-102.812,33.410],[0.000000,0.000998,1.000000,0.000009],[-1,-1,0,1],[9E9,0.0,0.0,9E9,9E9,9E9]],printSpeed_0,zDef_0,bendedTool,\WObj:=ext_axis;
MoveL [[-5.198,-35.361,33.410],[0.000000,0.000998,1.000000,0.000009],[-1,-1,0,1],[9E9,0.0,0.0,9E9,9E9,9E9]],printSpeed_0,zDef_0,bendedTool,\WObj:=ext_axis;
MoveL [[-7.216,-35.051,33.410],[0.000000,0.000998,1.000000,0.000009],[-1,-1,0,1],[9E9,0.0,0.0,9E9,9E9,9E9]],printSpeed_0,zDef_0,bendedTool,\WObj:=ext_axis;
MoveL [[-16.808,-102.053,33.410],[0.000000,0.000998,1.000000,0.000009],[-1,-1,0,1],[9E9,0.0,0.0,9E9,9E9,9E9]],printSpeed_0,zDef_0,bendedTool,\WObj:=ext_axis;
MoveL [[-22.601,-100.933,33.410],[0.000000,0.000998,1.000000,0.000009],[-1,-1,0,1],[9E9,0.0,0.0,9E9,9E9,9E9]],printSpeed_0,zDef_0,bendedTool,\WObj:=ext_axis;
MoveL [[-9.193,-34.530,33.410],[0.000000,0.000998,1.000000,0.000009],[-1,-1,0,1],[9E9,0.0,0.0,9E9,9E9,9E9]],printSpeed_0,zDef_0,bendedTool,\WObj:=ext_axis;
MoveL [[-11.171,-34.011,33.410],[0.000000,0.000998,1.000000,0.000009],[-1,-1,0,1],[9E9,0.0,0.0,9E9,9E9,9E9]],printSpeed_0,zDef_0,bendedTool,\WObj:=ext_axis;
MoveL [[-28.318,-99.424,33.410],[0.000000,0.000998,1.000000,0.000009],[-1,-1,0,1],[9E9,0.0,0.0,9E9,9E9,9E9]],printSpeed_0,zDef_0,bendedTool,\WObj:=ext_axis;
MoveL [[-33.989,-97.779,33.410],[0.000000,0.000998,1.000000,0.000009],[-1,-1,0,1],[9E9,0.0,0.0,9E9,9E9,9E9]],printSpeed_0,zDef_0,bendedTool,\WObj:=ext_axis;
MoveL [[-13.072,-33.263,33.410],[0.000000,0.000998,1.000000,0.000009],[-1,-1,0,1],[9E9,0.0,0.0,9E9,9E9,9E9]],printSpeed_0,zDef_0,bendedTool,\WObj:=ext_axis;
MoveL [[-14.964,-32.489,33.410],[0.000000,0.000998,1.000000,0.000009],[-1,-1,0,1],[9E9,0.0,0.0,9E9,9E9,9E9]],printSpeed_0,zDef_0,bendedTool,\WObj:=ext_axis;
MoveL [[-39.460,-95.538,33.410],[0.000000,0.000998,1.000000,0.000009],[-1,-1,0,1],[9E9,0.0,0.0,9E9,9E9,9E9]],printSpeed_0,zDef_0,bendedTool,\WObj:=ext_axis;
MoveL [[-44.931,-93.295,33.410],[0.000000,0.000998,1.000000,0.000009],[-1,-1,0,1],[9E9,0.0,0.0,9E9,9E9,9E9]],printSpeed_0,zDef_0,bendedTool,\WObj:=ext_axis;
MoveL [[-16.785,-31.568,33.410],[0.000000,0.000998,1.000000,0.000009],[-1,-1,0,1],[9E9,0.0,0.0,9E9,9E9,9E9]],printSpeed_0,zDef_0,bendedTool,\WObj:=ext_axis;
MoveL [[-18.560,-30.552,33.410],[0.000000,0.000998,1.000000,0.000009],[-1,-1,0,1],[9E9,0.0,0.0,9E9,9E9,9E9]],printSpeed_0,zDef_0,bendedTool,\WObj:=ext_axis;
MoveL [[-50.095,-90.425,33.410],[0.000000,0.000998,1.000000,0.000009],[-1,-1,0,1],[9E9,0.0,0.0,9E9,9E9,9E9]],printSpeed_0,zDef_0,bendedTool,\WObj:=ext_axis;
MoveL [[-55.224,-87.483,33.410],[0.000000,0.000998,1.000000,0.000009],[-1,-1,0,1],[9E9,0.0,0.0,9E9,9E9,9E9]],printSpeed_0,zDef_0,bendedTool,\WObj:=ext_axis;
MoveL [[-20.288,-29.467,33.410],[0.000000,0.000998,1.000000,0.000009],[-1,-1,0,1],[9E9,0.0,0.0,9E9,9E9,9E9]],printSpeed_0,zDef_0,bendedTool,\WObj:=ext_axis;
MoveL [[-21.916,-28.230,33.410],[0.000000,0.000998,1.000000,0.000009],[-1,-1,0,1],[9E9,0.0,0.0,9E9,9E9,9E9]],printSpeed_0,zDef_0,bendedTool,\WObj:=ext_axis;
MoveL [[-60.094,-84.151,33.410],[0.000000,0.000998,1.000000,0.000009],[-1,-1,0,1],[9E9,0.0,0.0,9E9,9E9,9E9]],printSpeed_0,zDef_0,bendedTool,\WObj:=ext_axis;
MoveL [[-64.799,-80.570,33.410],[0.000000,0.000998,1.000000,0.000009],[-1,-1,0,1],[9E9,0.0,0.0,9E9,9E9,9E9]],printSpeed_0,zDef_0,bendedTool,\WObj:=ext_axis;
MoveL [[-23.541,-26.990,33.410],[0.000000,0.000998,1.000000,0.000009],[-1,-1,0,1],[9E9,0.0,0.0,9E9,9E9,9E9]],printSpeed_0,zDef_0,bendedTool,\WObj:=ext_axis;
MoveL [[-24.990,-25.547,33.410],[0.000000,0.000998,1.000000,0.000009],[-1,-1,0,1],[9E9,0.0,0.0,9E9,9E9,9E9]],printSpeed_0,zDef_0,bendedTool,\WObj:=ext_axis;
MoveL [[-69.346,-76.808,33.410],[0.000000,0.000998,1.000000,0.000009],[-1,-1,0,1],[9E9,0.0,0.0,9E9,9E9,9E9]],printSpeed_0,zDef_0,bendedTool,\WObj:=ext_axis;
MoveL [[-73.542,-72.642,33.410],[0.000000,0.000998,1.000000,0.000009],[-1,-1,0,1],[9E9,0.0,0.0,9E9,9E9,9E9]],printSpeed_0,zDef_0,bendedTool,\WObj:=ext_axis;
MoveL [[-26.441,-24.107,33.410],[0.000000,0.000998,1.000000,0.000009],[-1,-1,0,1],[9E9,0.0,0.0,9E9,9E9,9E9]],printSpeed_0,zDef_0,bendedTool,\WObj:=ext_axis;
MoveL [[-27.747,-22.538,33.410],[0.000000,0.000998,1.000000,0.000009],[-1,-1,0,1],[9E9,0.0,0.0,9E9,9E9,9E9]],printSpeed_0,zDef_0,bendedTool,\WObj:=ext_axis;
MoveL [[-77.726,-68.466,33.410],[0.000000,0.000998,1.000000,0.000009],[-1,-1,0,1],[9E9,0.0,0.0,9E9,9E9,9E9]],printSpeed_0,zDef_0,bendedTool,\WObj:=ext_axis;
MoveL [[-81.339,-63.786,33.410],[0.000000,0.000998,1.000000,0.000009],[-1,-1,0,1],[9E9,0.0,0.0,9E9,9E9,9E9]],printSpeed_0,zDef_0,bendedTool,\WObj:=ext_axis;
MoveL [[-29.000,-20.922,33.410],[0.000000,0.000998,1.000000,0.000009],[-1,-1,0,1],[9E9,0.0,0.0,9E9,9E9,9E9]],printSpeed_0,zDef_0,bendedTool,\WObj:=ext_axis;
MoveL [[-30.155,-19.241,33.410],[0.000000,0.000998,1.000000,0.000009],[-1,-1,0,1],[9E9,0.0,0.0,9E9,9E9,9E9]],printSpeed_0,zDef_0,bendedTool,\WObj:=ext_axis;
MoveL [[-84.950,-59.104,33.410],[0.000000,0.000998,1.000000,0.000009],[-1,-1,0,1],[9E9,0.0,0.0,9E9,9E9,9E9]],printSpeed_0,zDef_0,bendedTool,\WObj:=ext_axis;
MoveL [[-88.096,-54.109,33.410],[0.000000,0.000998,1.000000,0.000009],[-1,-1,0,1],[9E9,0.0,0.0,9E9,9E9,9E9]],printSpeed_0,zDef_0,bendedTool,\WObj:=ext_axis;
MoveL [[-31.186,-17.475,33.410],[0.000000,0.000998,1.000000,0.000009],[-1,-1,0,1],[9E9,0.0,0.0,9E9,9E9,9E9]],printSpeed_0,zDef_0,bendedTool,\WObj:=ext_axis;
MoveL [[-32.180,-15.691,33.410],[0.000000,0.000998,1.000000,0.000009],[-1,-1,0,1],[9E9,0.0,0.0,9E9,9E9,9E9]],printSpeed_0,zDef_0,bendedTool,\WObj:=ext_axis;
MoveL [[-91.072,-49.001,33.410],[0.000000,0.000998,1.000000,0.000009],[-1,-1,0,1],[9E9,0.0,0.0,9E9,9E9,9E9]],printSpeed_0,zDef_0,bendedTool,\WObj:=ext_axis;
MoveL [[-93.745,-43.741,33.410],[0.000000,0.000998,1.000000,0.000009],[-1,-1,0,1],[9E9,0.0,0.0,9E9,9E9,9E9]],printSpeed_0,zDef_0,bendedTool,\WObj:=ext_axis;
MoveL [[-32.969,-13.805,33.410],[0.000000,0.000998,1.000000,0.000009],[-1,-1,0,1],[9E9,0.0,0.0,9E9,9E9,9E9]],printSpeed_0,zDef_0,bendedTool,\WObj:=ext_axis;
MoveL [[-33.758,-11.918,33.410],[0.000000,0.000998,1.000000,0.000009],[-1,-1,0,1],[9E9,0.0,0.0,9E9,9E9,9E9]],printSpeed_0,zDef_0,bendedTool,\WObj:=ext_axis;
MoveL [[-96.029,-38.287,33.410],[0.000000,0.000998,1.000000,0.000009],[-1,-1,0,1],[9E9,0.0,0.0,9E9,9E9,9E9]],printSpeed_0,zDef_0,bendedTool,\WObj:=ext_axis;
MoveL [[-98.201,-32.794,33.410],[0.000000,0.000998,1.000000,0.000009],[-1,-1,0,1],[9E9,0.0,0.0,9E9,9E9,9E9]],printSpeed_0,zDef_0,bendedTool,\WObj:=ext_axis;
MoveL [[-34.326,-9.956,33.410],[0.000000,0.000998,1.000000,0.000009],[-1,-1,0,1],[9E9,0.0,0.0,9E9,9E9,9E9]],printSpeed_0,zDef_0,bendedTool,\WObj:=ext_axis;
MoveL [[-34.856,-7.982,33.410],[0.000000,0.000998,1.000000,0.000009],[-1,-1,0,1],[9E9,0.0,0.0,9E9,9E9,9E9]],printSpeed_0,zDef_0,bendedTool,\WObj:=ext_axis;
MoveL [[-99.750,-27.088,33.410],[0.000000,0.000998,1.000000,0.000009],[-1,-1,0,1],[9E9,0.0,0.0,9E9,9E9,9E9]],printSpeed_0,zDef_0,bendedTool,\WObj:=ext_axis;
MoveL [[-101.298,-21.382,33.410],[0.000000,0.000998,1.000000,0.000009],[-1,-1,0,1],[9E9,0.0,0.0,9E9,9E9,9E9]],printSpeed_0,zDef_0,bendedTool,\WObj:=ext_axis;
MoveL [[-35.249,-5.979,33.410],[0.000000,0.000998,1.000000,0.000009],[-1,-1,0,1],[9E9,0.0,0.0,9E9,9E9,9E9]],printSpeed_0,zDef_0,bendedTool,\WObj:=ext_axis;
MoveL [[-35.533,-3.954,33.410],[0.000000,0.000998,1.000000,0.000009],[-1,-1,0,1],[9E9,0.0,0.0,9E9,9E9,9E9]],printSpeed_0,zDef_0,bendedTool,\WObj:=ext_axis;
MoveL [[-102.194,-15.544,33.410],[0.000000,0.000998,1.000000,0.000009],[-1,-1,0,1],[9E9,0.0,0.0,9E9,9E9,9E9]],printSpeed_0,zDef_0,bendedTool,\WObj:=ext_axis;
MoveL [[-102.991,-9.685,33.410],[0.000000,0.000998,1.000000,0.000009],[-1,-1,0,1],[9E9,0.0,0.0,9E9,9E9,9E9]],printSpeed_0,zDef_0,bendedTool,\WObj:=ext_axis;
MoveL [[-35.736,-1.923,33.410],[0.000000,0.000998,1.000000,0.000009],[0,-1,0,1],[9E9,0.0,0.0,9E9,9E9,9E9]],printSpeed_0,zDef_0,bendedTool,\WObj:=ext_axis;
MoveL [[-35.745,0.121,33.410],[0.000000,0.000998,1.000000,0.000009],[0,-1,0,1],[9E9,0.0,0.0,9E9,9E9,9E9]],printSpeed_0,zDef_0,bendedTool,\WObj:=ext_axis;
MoveL [[-103.350,-3.796,33.410],[0.000000,0.000998,1.000000,0.000009],[-1,-1,0,1],[9E9,0.0,0.0,9E9,9E9,9E9]],printSpeed_0,zDef_0,bendedTool,\WObj:=ext_axis;
MoveL [[-103.373,2.117,33.410],[0.000000,0.000998,1.000000,0.000009],[0,0,0,1],[9E9,0.0,0.0,9E9,9E9,9E9]],printSpeed_0,zDef_0,bendedTool,\WObj:=ext_axis;
MoveL [[-35.759,2.166,33.410],[0.000000,0.000998,1.000000,0.000009],[0,0,0,1],[9E9,0.0,0.0,9E9,9E9,9E9]],printSpeed_0,zDef_0,bendedTool,\WObj:=ext_axis;
MoveL [[-35.504,4.194,33.410],[0.000000,0.000998,1.000000,0.000009],[0,0,0,1],[9E9,0.0,0.0,9E9,9E9,9E9]],printSpeed_0,zDef_0,bendedTool,\WObj:=ext_axis;
MoveL [[-103.181,8.016,33.410],[0.000000,0.000998,1.000000,0.000009],[0,0,0,1],[9E9,0.0,0.0,9E9,9E9,9E9]],printSpeed_0,zDef_0,bendedTool,\WObj:=ext_axis;
MoveL [[-102.428,13.881,33.410],[0.000000,0.000998,1.000000,0.000009],[0,0,0,1],[9E9,0.0,0.0,9E9,9E9,9E9]],printSpeed_0,zDef_0,bendedTool,\WObj:=ext_axis;
MoveL [[-35.245,6.222,33.410],[0.000000,0.000998,1.000000,0.000009],[0,0,0,1],[9E9,0.0,0.0,9E9,9E9,9E9]],printSpeed_0,zDef_0,bendedTool,\WObj:=ext_axis;
MoveL [[-34.804,8.215,33.410],[0.000000,0.000998,1.000000,0.000009],[0,0,0,1],[9E9,0.0,0.0,9E9,9E9,9E9]],printSpeed_0,zDef_0,bendedTool,\WObj:=ext_axis;
MoveL [[-101.674,19.745,33.410],[0.000000,0.000998,1.000000,0.000009],[0,0,0,1],[9E9,0.0,0.0,9E9,9E9,9E9]],printSpeed_0,zDef_0,bendedTool,\WObj:=ext_axis;
MoveL [[-100.174,25.464,33.410],[0.000000,0.000998,1.000000,0.000009],[0,0,0,1],[9E9,0.0,0.0,9E9,9E9,9E9]],printSpeed_0,zDef_0,bendedTool,\WObj:=ext_axis;
MoveL [[-34.283,10.192,33.410],[0.000000,0.000998,1.000000,0.000009],[0,0,0,1],[9E9,0.0,0.0,9E9,9E9,9E9]],printSpeed_0,zDef_0,bendedTool,\WObj:=ext_axis;
MoveL [[-33.660,12.135,33.410],[0.000000,0.000998,1.000000,0.000009],[0,0,0,1],[9E9,0.0,0.0,9E9,9E9,9E9]],printSpeed_0,zDef_0,bendedTool,\WObj:=ext_axis;
MoveL [[-98.668,31.181,33.410],[0.000000,0.000998,1.000000,0.000009],[0,0,0,1],[9E9,0.0,0.0,9E9,9E9,9E9]],printSpeed_0,zDef_0,bendedTool,\WObj:=ext_axis;
MoveL [[-96.655,36.729,33.410],[0.000000,0.000998,1.000000,0.000009],[0,0,0,1],[9E9,0.0,0.0,9E9,9E9,9E9]],printSpeed_0,zDef_0,bendedTool,\WObj:=ext_axis;
MoveL [[-32.881,14.025,33.410],[0.000000,0.000998,1.000000,0.000009],[0,0,0,1],[9E9,0.0,0.0,9E9,9E9,9E9]],printSpeed_0,zDef_0,bendedTool,\WObj:=ext_axis;
MoveL [[-32.078,15.904,33.410],[0.000000,0.000998,1.000000,0.000009],[0,0,0,1],[9E9,0.0,0.0,9E9,9E9,9E9]],printSpeed_0,zDef_0,bendedTool,\WObj:=ext_axis;
MoveL [[-94.413,42.200,33.410],[0.000000,0.000998,1.000000,0.000009],[0,0,0,1],[9E9,0.0,0.0,9E9,9E9,9E9]],printSpeed_0,zDef_0,bendedTool,\WObj:=ext_axis;
MoveL [[-91.890,47.534,33.410],[0.000000,0.000998,1.000000,0.000009],[0,0,0,1],[9E9,0.0,0.0,9E9,9E9,9E9]],printSpeed_0,zDef_0,bendedTool,\WObj:=ext_axis;
MoveL [[-31.063,17.678,33.410],[0.000000,0.000998,1.000000,0.000009],[0,0,0,1],[9E9,0.0,0.0,9E9,9E9,9E9]],printSpeed_0,zDef_0,bendedTool,\WObj:=ext_axis;
MoveL [[-30.049,19.454,33.410],[0.000000,0.000998,1.000000,0.000009],[0,0,0,1],[9E9,0.0,0.0,9E9,9E9,9E9]],printSpeed_0,zDef_0,bendedTool,\WObj:=ext_axis;
MoveL [[-88.951,52.664,33.410],[0.000000,0.000998,1.000000,0.000009],[0,0,0,1],[9E9,0.0,0.0,9E9,9E9,9E9]],printSpeed_0,zDef_0,bendedTool,\WObj:=ext_axis;
MoveL [[-85.939,57.747,33.410],[0.000000,0.000998,1.000000,0.000009],[0,0,0,1],[9E9,0.0,0.0,9E9,9E9,9E9]],printSpeed_0,zDef_0,bendedTool,\WObj:=ext_axis;
MoveL [[-28.845,21.102,33.410],[0.000000,0.000998,1.000000,0.000009],[0,0,0,1],[9E9,0.0,0.0,9E9,9E9,9E9]],printSpeed_0,zDef_0,bendedTool,\WObj:=ext_axis;
MoveL [[-27.602,22.726,33.410],[0.000000,0.000998,1.000000,0.000009],[0,0,0,1],[9E9,0.0,0.0,9E9,9E9,9E9]],printSpeed_0,zDef_0,bendedTool,\WObj:=ext_axis;
MoveL [[-82.360,62.453,33.410],[0.000000,0.000998,1.000000,0.000009],[0,0,0,1],[9E9,0.0,0.0,9E9,9E9,9E9]],printSpeed_0,zDef_0,bendedTool,\WObj:=ext_axis;
MoveL [[-78.778,67.157,33.410],[0.000000,0.000998,1.000000,0.000009],[0,0,0,1],[9E9,0.0,0.0,9E9,9E9,9E9]],printSpeed_0,zDef_0,bendedTool,\WObj:=ext_axis;
MoveL [[-26.264,24.267,33.410],[0.000000,0.000998,1.000000,0.000009],[0,0,0,1],[9E9,0.0,0.0,9E9,9E9,9E9]],printSpeed_0,zDef_0,bendedTool,\WObj:=ext_axis;
MoveL [[-24.824,25.719,33.410],[0.000000,0.000998,1.000000,0.000009],[0,0,0,1],[9E9,0.0,0.0,9E9,9E9,9E9]],printSpeed_0,zDef_0,bendedTool,\WObj:=ext_axis;
MoveL [[-74.718,71.445,33.410],[0.000000,0.000998,1.000000,0.000009],[0,0,0,1],[9E9,0.0,0.0,9E9,9E9,9E9]],printSpeed_0,zDef_0,bendedTool,\WObj:=ext_axis;
MoveL [[-70.553,75.642,33.410],[0.000000,0.000998,1.000000,0.000009],[0,0,0,1],[9E9,0.0,0.0,9E9,9E9,9E9]],printSpeed_0,zDef_0,bendedTool,\WObj:=ext_axis;
MoveL [[-23.346,27.127,33.410],[0.000000,0.000998,1.000000,0.000009],[0,0,0,1],[9E9,0.0,0.0,9E9,9E9,9E9]],printSpeed_0,zDef_0,bendedTool,\WObj:=ext_axis;
MoveL [[-21.728,28.377,33.410],[0.000000,0.000998,1.000000,0.000009],[0,0,0,1],[9E9,0.0,0.0,9E9,9E9,9E9]],printSpeed_0,zDef_0,bendedTool,\WObj:=ext_axis;
MoveL [[-66.118,79.533,33.410],[0.000000,0.000998,1.000000,0.000009],[0,0,0,1],[9E9,0.0,0.0,9E9,9E9,9E9]],printSpeed_0,zDef_0,bendedTool,\WObj:=ext_axis;
MoveL [[-61.438,83.147,33.410],[0.000000,0.000998,1.000000,0.000009],[0,0,0,1],[9E9,0.0,0.0,9E9,9E9,9E9]],printSpeed_0,zDef_0,bendedTool,\WObj:=ext_axis;
MoveL [[-20.111,29.628,33.410],[0.000000,0.000998,1.000000,0.000009],[0,0,0,1],[9E9,0.0,0.0,9E9,9E9,9E9]],printSpeed_0,zDef_0,bendedTool,\WObj:=ext_axis;
MoveL [[-18.359,30.680,33.410],[0.000000,0.000998,1.000000,0.000009],[0,0,0,1],[9E9,0.0,0.0,9E9,9E9,9E9]],printSpeed_0,zDef_0,bendedTool,\WObj:=ext_axis;
MoveL [[-56.658,86.612,33.410],[0.000000,0.000998,1.000000,0.000009],[0,0,0,1],[9E9,0.0,0.0,9E9,9E9,9E9]],printSpeed_0,zDef_0,bendedTool,\WObj:=ext_axis;
MoveL [[-51.551,89.591,33.410],[0.000000,0.000998,1.000000,0.000009],[0,0,0,1],[9E9,0.0,0.0,9E9,9E9,9E9]],printSpeed_0,zDef_0,bendedTool,\WObj:=ext_axis;
MoveL [[-16.595,31.715,33.410],[0.000000,0.000998,1.000000,0.000009],[0,0,0,1],[9E9,0.0,0.0,9E9,9E9,9E9]],printSpeed_0,zDef_0,bendedTool,\WObj:=ext_axis;
MoveL [[-14.751,32.587,33.410],[0.000000,0.000998,1.000000,0.000009],[0,0,0,1],[9E9,0.0,0.0,9E9,9E9,9E9]],printSpeed_0,zDef_0,bendedTool,\WObj:=ext_axis;
MoveL [[-46.442,92.566,33.410],[0.000000,0.000998,1.000000,0.000009],[0,0,0,1],[9E9,0.0,0.0,9E9,9E9,9E9]],printSpeed_0,zDef_0,bendedTool,\WObj:=ext_axis;
MoveL [[-41.007,94.888,33.410],[0.000000,0.000998,1.000000,0.000009],[0,0,0,1],[9E9,0.0,0.0,9E9,9E9,9E9]],printSpeed_0,zDef_0,bendedTool,\WObj:=ext_axis;
MoveL [[-12.864,33.374,33.410],[0.000000,0.000998,1.000000,0.000009],[0,0,0,1],[9E9,0.0,0.0,9E9,9E9,9E9]],printSpeed_0,zDef_0,bendedTool,\WObj:=ext_axis;
MoveL [[-10.949,34.080,33.410],[0.000000,0.000998,1.000000,0.000009],[0,0,0,1],[9E9,0.0,0.0,9E9,9E9,9E9]],printSpeed_0,zDef_0,bendedTool,\WObj:=ext_axis;
MoveL [[-35.553,97.173,33.410],[0.000000,0.000998,1.000000,0.000009],[0,0,0,1],[9E9,0.0,0.0,9E9,9E9,9E9]],printSpeed_0,zDef_0,bendedTool,\WObj:=ext_axis;
MoveL [[-29.934,98.976,33.410],[0.000000,0.000998,1.000000,0.000009],[0,0,0,1],[9E9,0.0,0.0,9E9,9E9,9E9]],printSpeed_0,zDef_0,bendedTool,\WObj:=ext_axis;
MoveL [[-8.976,34.616,33.410],[0.000000,0.000998,1.000000,0.000009],[0,0,0,1],[9E9,0.0,0.0,9E9,9E9,9E9]],printSpeed_0,zDef_0,bendedTool,\WObj:=ext_axis;
MoveL [[-7.000,35.136,33.410],[0.000000,0.000998,1.000000,0.000009],[0,0,0,1],[9E9,0.0,0.0,9E9,9E9,9E9]],printSpeed_0,zDef_0,bendedTool,\WObj:=ext_axis;
MoveL [[-24.228,100.525,33.410],[0.000000,0.000998,1.000000,0.000009],[0,0,0,1],[9E9,0.0,0.0,9E9,9E9,9E9]],printSpeed_0,zDef_0,bendedTool,\WObj:=ext_axis;
MoveL [[-18.466,101.797,33.410],[0.000000,0.000998,1.000000,0.000009],[0,0,0,1],[9E9,0.0,0.0,9E9,9E9,9E9]],printSpeed_0,zDef_0,bendedTool,\WObj:=ext_axis;
MoveL [[-4.974,35.411,33.410],[0.000000,0.000998,1.000000,0.000009],[0,0,0,1],[9E9,0.0,0.0,9E9,9E9,9E9]],printSpeed_0,zDef_0,bendedTool,\WObj:=ext_axis;
MoveL [[-2.948,35.685,33.410],[0.000000,0.000998,1.000000,0.000009],[0,0,0,1],[9E9,0.0,0.0,9E9,9E9,9E9]],printSpeed_0,zDef_0,bendedTool,\WObj:=ext_axis;
MoveL [[-12.607,102.594,33.410],[0.000000,0.000998,1.000000,0.000009],[0,0,0,1],[9E9,0.0,0.0,9E9,9E9,9E9]],printSpeed_0,zDef_0,bendedTool,\WObj:=ext_axis;
MoveL [[-6.745,103.335,33.410],[0.000000,0.000998,1.000000,0.000009],[0,0,0,1],[9E9,0.0,0.0,9E9,9E9,9E9]],printSpeed_0,zDef_0,bendedTool,\WObj:=ext_axis;
MoveL [[-0.907,35.752,33.410],[0.000000,0.000998,1.000000,0.000009],[0,0,0,1],[9E9,0.0,0.0,9E9,9E9,9E9]],printSpeed_0,zDef_0,bendedTool,\WObj:=ext_axis;
MoveL [[1.137,35.758,33.410],[0.000000,0.000998,1.000000,0.000009],[0,0,0,1],[9E9,0.0,0.0,9E9,9E9,9E9]],printSpeed_0,zDef_0,bendedTool,\WObj:=ext_axis;
MoveL [[-0.832,103.362,33.410],[0.000000,0.000998,1.000000,0.000009],[0,0,0,1],[9E9,0.0,0.0,9E9,9E9,9E9]],printSpeed_0,zDef_0,bendedTool,\WObj:=ext_axis;
MoveL [[5.080,103.385,33.410],[0.000000,0.000998,1.000000,0.000009],[0,0,0,1],[9E9,0.0,0.0,9E9,9E9,9E9]],printSpeed_0,zDef_0,bendedTool,\WObj:=ext_axis;
MoveL [[3.175,35.632,33.410],[0.000000,0.000998,1.000000,0.000009],[0,0,0,1],[9E9,0.0,0.0,9E9,9E9,9E9]],printSpeed_0,zDef_0,bendedTool,\WObj:=ext_axis;
MoveL [[5.204,35.386,33.410],[0.000000,0.000998,1.000000,0.000009],[0,0,0,1],[9E9,0.0,0.0,9E9,9E9,9E9]],printSpeed_0,zDef_0,bendedTool,\WObj:=ext_axis;
MoveL [[10.956,102.805,33.410],[0.000000,0.000998,1.000000,0.000009],[0,0,0,1],[9E9,0.0,0.0,9E9,9E9,9E9]],printSpeed_0,zDef_0,bendedTool,\WObj:=ext_axis;
MoveL [[16.820,102.052,33.410],[0.000000,0.000998,1.000000,0.000009],[0,0,0,1],[9E9,0.0,0.0,9E9,9E9,9E9]],printSpeed_0,zDef_0,bendedTool,\WObj:=ext_axis;
MoveL [[7.225,35.099,33.410],[0.000000,0.000998,1.000000,0.000009],[0,0,0,1],[9E9,0.0,0.0,9E9,9E9,9E9]],printSpeed_0,zDef_0,bendedTool,\WObj:=ext_axis;
MoveL [[9.201,34.572,33.410],[0.000000,0.000998,1.000000,0.000009],[0,0,0,1],[9E9,0.0,0.0,9E9,9E9,9E9]],printSpeed_0,zDef_0,bendedTool,\WObj:=ext_axis;
MoveL [[22.614,100.935,33.410],[0.000000,0.000998,1.000000,0.000009],[0,0,0,1],[9E9,0.0,0.0,9E9,9E9,9E9]],printSpeed_0,zDef_0,bendedTool,\WObj:=ext_axis;
MoveL [[28.334,99.438,33.410],[0.000000,0.000998,1.000000,0.000009],[0,0,0,1],[9E9,0.0,0.0,9E9,9E9,9E9]],printSpeed_0,zDef_0,bendedTool,\WObj:=ext_axis;
MoveL [[11.177,34.045,33.410],[0.000000,0.000998,1.000000,0.000009],[0,0,0,1],[9E9,0.0,0.0,9E9,9E9,9E9]],printSpeed_0,zDef_0,bendedTool,\WObj:=ext_axis;
MoveL [[13.077,33.297,33.410],[0.000000,0.000998,1.000000,0.000009],[0,0,0,1],[9E9,0.0,0.0,9E9,9E9,9E9]],printSpeed_0,zDef_0,bendedTool,\WObj:=ext_axis;
MoveL [[34.006,97.799,33.410],[0.000000,0.000998,1.000000,0.000009],[0,0,0,1],[9E9,0.0,0.0,9E9,9E9,9E9]],printSpeed_0,zDef_0,bendedTool,\WObj:=ext_axis;
MoveL [[39.474,95.550,33.410],[0.000000,0.000998,1.000000,0.000009],[0,0,0,1],[9E9,0.0,0.0,9E9,9E9,9E9]],printSpeed_0,zDef_0,bendedTool,\WObj:=ext_axis;
MoveL [[14.968,32.520,33.410],[0.000000,0.000998,1.000000,0.000009],[0,0,0,1],[9E9,0.0,0.0,9E9,9E9,9E9]],printSpeed_0,zDef_0,bendedTool,\WObj:=ext_axis;
MoveL [[16.790,31.601,33.410],[0.000000,0.000998,1.000000,0.000009],[0,0,0,1],[9E9,0.0,0.0,9E9,9E9,9E9]],printSpeed_0,zDef_0,bendedTool,\WObj:=ext_axis;
MoveL [[44.942,93.298,33.410],[0.000000,0.000998,1.000000,0.000009],[0,0,0,1],[9E9,0.0,0.0,9E9,9E9,9E9]],printSpeed_0,zDef_0,bendedTool,\WObj:=ext_axis;
MoveL [[50.104,90.426,33.410],[0.000000,0.000998,1.000000,0.000009],[0,0,0,1],[9E9,0.0,0.0,9E9,9E9,9E9]],printSpeed_0,zDef_0,bendedTool,\WObj:=ext_axis;
MoveL [[18.563,30.582,33.410],[0.000000,0.000998,1.000000,0.000009],[0,0,0,1],[9E9,0.0,0.0,9E9,9E9,9E9]],printSpeed_0,zDef_0,bendedTool,\WObj:=ext_axis;
MoveL [[20.292,29.498,33.410],[0.000000,0.000998,1.000000,0.000009],[0,0,0,1],[9E9,0.0,0.0,9E9,9E9,9E9]],printSpeed_0,zDef_0,bendedTool,\WObj:=ext_axis;
MoveL [[55.232,87.482,33.410],[0.000000,0.000998,1.000000,0.000009],[0,0,0,1],[9E9,0.0,0.0,9E9,9E9,9E9]],printSpeed_0,zDef_0,bendedTool,\WObj:=ext_axis;
MoveL [[60.106,84.155,33.410],[0.000000,0.000998,1.000000,0.000009],[0,0,0,1],[9E9,0.0,0.0,9E9,9E9,9E9]],printSpeed_0,zDef_0,bendedTool,\WObj:=ext_axis;
MoveL [[21.916,28.256,33.410],[0.000000,0.000998,1.000000,0.000009],[0,0,0,1],[9E9,0.0,0.0,9E9,9E9,9E9]],printSpeed_0,zDef_0,bendedTool,\WObj:=ext_axis;
MoveL [[23.536,27.008,33.410],[0.000000,0.000998,1.000000,0.000009],[0,0,0,1],[9E9,0.0,0.0,9E9,9E9,9E9]],printSpeed_0,zDef_0,bendedTool,\WObj:=ext_axis;
MoveL [[64.819,80.584,33.410],[0.000000,0.000998,1.000000,0.000009],[0,0,0,1],[9E9,0.0,0.0,9E9,9E9,9E9]],printSpeed_0,zDef_0,bendedTool,\WObj:=ext_axis;
MoveL [[69.367,76.825,33.410],[0.000000,0.000998,1.000000,0.000009],[0,0,0,1],[9E9,0.0,0.0,9E9,9E9,9E9]],printSpeed_0,zDef_0,bendedTool,\WObj:=ext_axis;
MoveL [[24.988,25.570,33.410],[0.000000,0.000998,1.000000,0.000009],[0,0,0,1],[9E9,0.0,0.0,9E9,9E9,9E9]],printSpeed_0,zDef_0,bendedTool,\WObj:=ext_axis;
MoveL [[26.443,24.133,33.410],[0.000000,0.000998,1.000000,0.000009],[0,0,0,1],[9E9,0.0,0.0,9E9,9E9,9E9]],printSpeed_0,zDef_0,bendedTool,\WObj:=ext_axis;
MoveL [[73.558,72.654,33.410],[0.000000,0.000998,1.000000,0.000009],[0,0,0,1],[9E9,0.0,0.0,9E9,9E9,9E9]],printSpeed_0,zDef_0,bendedTool,\WObj:=ext_axis;
MoveL [[77.730,68.466,33.410],[0.000000,0.000998,1.000000,0.000009],[0,0,0,1],[9E9,0.0,0.0,9E9,9E9,9E9]],printSpeed_0,zDef_0,bendedTool,\WObj:=ext_axis;
MoveL [[27.753,22.568,33.410],[0.000000,0.000998,1.000000,0.000009],[0,0,0,1],[9E9,0.0,0.0,9E9,9E9,9E9]],printSpeed_0,zDef_0,bendedTool,\WObj:=ext_axis;
MoveL [[29.000,20.948,33.410],[0.000000,0.000998,1.000000,0.000009],[0,0,0,1],[9E9,0.0,0.0,9E9,9E9,9E9]],printSpeed_0,zDef_0,bendedTool,\WObj:=ext_axis;
MoveL [[81.342,63.785,33.410],[0.000000,0.000998,1.000000,0.000009],[0,0,0,1],[9E9,0.0,0.0,9E9,9E9,9E9]],printSpeed_0,zDef_0,bendedTool,\WObj:=ext_axis;
MoveL [[84.956,59.106,33.410],[0.000000,0.000998,1.000000,0.000009],[0,0,0,1],[9E9,0.0,0.0,9E9,9E9,9E9]],printSpeed_0,zDef_0,bendedTool,\WObj:=ext_axis;
MoveL [[30.156,19.267,33.410],[0.000000,0.000998,1.000000,0.000009],[0,0,0,1],[9E9,0.0,0.0,9E9,9E9,9E9]],printSpeed_0,zDef_0,bendedTool,\WObj:=ext_axis;
MoveL [[31.183,17.499,33.410],[0.000000,0.000998,1.000000,0.000009],[0,0,0,1],[9E9,0.0,0.0,9E9,9E9,9E9]],printSpeed_0,zDef_0,bendedTool,\WObj:=ext_axis;
MoveL [[88.103,54.111,33.410],[0.000000,0.000998,1.000000,0.000009],[0,0,0,1],[9E9,0.0,0.0,9E9,9E9,9E9]],printSpeed_0,zDef_0,bendedTool,\WObj:=ext_axis;
MoveL [[91.091,49.009,33.410],[0.000000,0.000998,1.000000,0.000009],[0,0,0,1],[9E9,0.0,0.0,9E9,9E9,9E9]],printSpeed_0,zDef_0,bendedTool,\WObj:=ext_axis;
MoveL [[32.180,15.716,33.410],[0.000000,0.000998,1.000000,0.000009],[0,0,0,1],[9E9,0.0,0.0,9E9,9E9,9E9]],printSpeed_0,zDef_0,bendedTool,\WObj:=ext_axis;
MoveL [[32.968,13.829,33.410],[0.000000,0.000998,1.000000,0.000009],[0,0,0,1],[9E9,0.0,0.0,9E9,9E9,9E9]],printSpeed_0,zDef_0,bendedTool,\WObj:=ext_axis;
MoveL [[93.761,43.748,33.410],[0.000000,0.000998,1.000000,0.000009],[0,0,0,1],[9E9,0.0,0.0,9E9,9E9,9E9]],printSpeed_0,zDef_0,bendedTool,\WObj:=ext_axis;
MoveL [[96.035,38.291,33.410],[0.000000,0.000998,1.000000,0.000009],[0,0,0,1],[9E9,0.0,0.0,9E9,9E9,9E9]],printSpeed_0,zDef_0,bendedTool,\WObj:=ext_axis;
MoveL [[33.756,11.943,33.410],[0.000000,0.000998,1.000000,0.000009],[0,0,0,1],[9E9,0.0,0.0,9E9,9E9,9E9]],printSpeed_0,zDef_0,bendedTool,\WObj:=ext_axis;
MoveL [[34.331,9.983,33.410],[0.000000,0.000998,1.000000,0.000009],[0,0,0,1],[9E9,0.0,0.0,9E9,9E9,9E9]],printSpeed_0,zDef_0,bendedTool,\WObj:=ext_axis;
MoveL [[98.198,32.795,33.410],[0.000000,0.000998,1.000000,0.000009],[0,0,0,1],[9E9,0.0,0.0,9E9,9E9,9E9]],printSpeed_0,zDef_0,bendedTool,\WObj:=ext_axis;
MoveL [[99.748,27.089,33.410],[0.000000,0.000998,1.000000,0.000009],[0,0,0,1],[9E9,0.0,0.0,9E9,9E9,9E9]],printSpeed_0,zDef_0,bendedTool,\WObj:=ext_axis;
MoveL [[34.865,8.010,33.410],[0.000000,0.000998,1.000000,0.000009],[0,0,0,1],[9E9,0.0,0.0,9E9,9E9,9E9]],printSpeed_0,zDef_0,bendedTool,\WObj:=ext_axis;
MoveL [[35.256,6.007,33.410],[0.000000,0.000998,1.000000,0.000009],[0,0,0,1],[9E9,0.0,0.0,9E9,9E9,9E9]],printSpeed_0,zDef_0,bendedTool,\WObj:=ext_axis;
MoveL [[101.296,21.382,33.410],[0.000000,0.000998,1.000000,0.000009],[0,0,0,1],[9E9,0.0,0.0,9E9,9E9,9E9]],printSpeed_0,zDef_0,bendedTool,\WObj:=ext_axis;
MoveL [[102.201,15.545,33.410],[0.000000,0.000998,1.000000,0.000009],[0,0,0,1],[9E9,0.0,0.0,9E9,9E9,9E9]],printSpeed_0,zDef_0,bendedTool,\WObj:=ext_axis;
